(G-CODE GENERATED BY FLATCAM v8.994 - www.flatcam.org - Version Date: 2020/11/7)

(Name: AlimThermostats-B_Cu.gbr_edit_cutout_cnc)
(Type: G-code from Geometry)
(Units: MM)

(Created on Thursday, 12 January 2023 at 13:33)

(This preprocessor is the default preprocessor used by FlatCAM.)
(It is made to work with MACH3 compatible motion controllers.)

(TOOL DIAMETER: 2.0 mm)
(Feedrate_XY: 120.0 mm/min)
(Feedrate_Z: 60.0 mm/min)
(Feedrate rapids 1000.0 mm/min)

(Z_Cut: -1.75 mm)
(DepthPerCut: 0.45 mm <=>4 passes)
(Z_Move: 2.0 mm)
(Z Start: 5.0 mm)
(Z End: 15.0 mm)
(X,Y End: None mm)
(Steps per circle: 64)
(Preprocessor Geometry: Default_no_M6)

(X range:   -1.0993 ...   29.0407  mm)
(Y range:   -1.1137 ...   25.2163  mm)

(Spindle Speed: 8000.0 RPM)
G21
G90
G94

M158 ; Start cooling pump

G01 F120.00

M5
G00 Z5.0000
G00 X0.0000 Y0.0000
T1
(MSG, Change to Tool Dia = 2.0000)
M0
G00 Z5.0000
        
M03 S8000.0
G4 P1.0
G01 F120.00
G00 X-1.0993 Y10.1513
G01 F60.00
G01 Z-0.4500
G01 F120.00
G01 X-1.0993 Y-0.0137
G01 X-1.0940 Y-0.1215
G01 X-1.0782 Y-0.2283
G01 X-1.0520 Y-0.3330
G01 X-1.0156 Y-0.4346
G01 X-0.9694 Y-0.5322
G01 X-0.9140 Y-0.6248
G01 X-0.8496 Y-0.7115
G01 X-0.7772 Y-0.7915
G01 X-0.6972 Y-0.8640
G01 X-0.6105 Y-0.9283
G01 X-0.5179 Y-0.9838
G01 X-0.4203 Y-1.0300
G01 X-0.3186 Y-1.0663
G01 X-0.2139 Y-1.0925
G01 X-0.1072 Y-1.1084
G01 X0.0007 Y-1.1137
G01 X12.0707 Y-1.1137
G00 X12.0707 Y-1.1137
G01 F60.00
G01 Z-0.9000
G01 F120.00
G01 X0.0007 Y-1.1137
G01 X-0.1072 Y-1.1084
G01 X-0.2139 Y-1.0925
G01 X-0.3186 Y-1.0663
G01 X-0.4203 Y-1.0300
G01 X-0.5179 Y-0.9838
G01 X-0.6105 Y-0.9283
G01 X-0.6972 Y-0.8640
G01 X-0.7772 Y-0.7915
G01 X-0.8496 Y-0.7115
G01 X-0.9140 Y-0.6248
G01 X-0.9694 Y-0.5322
G01 X-1.0156 Y-0.4346
G01 X-1.0520 Y-0.3330
G01 X-1.0782 Y-0.2283
G01 X-1.0940 Y-0.1215
G01 X-1.0993 Y-0.0137
G01 X-1.0993 Y10.1513
G00 X-1.0993 Y10.1513
G01 F60.00
G01 Z-1.3500
G01 F120.00
G01 X-1.0993 Y-0.0137
G01 X-1.0940 Y-0.1215
G01 X-1.0782 Y-0.2283
G01 X-1.0520 Y-0.3330
G01 X-1.0156 Y-0.4346
G01 X-0.9694 Y-0.5322
G01 X-0.9140 Y-0.6248
G01 X-0.8496 Y-0.7115
G01 X-0.7772 Y-0.7915
G01 X-0.6972 Y-0.8640
G01 X-0.6105 Y-0.9283
G01 X-0.5179 Y-0.9838
G01 X-0.4203 Y-1.0300
G01 X-0.3186 Y-1.0663
G01 X-0.2139 Y-1.0925
G01 X-0.1072 Y-1.1084
G01 X0.0007 Y-1.1137
G01 X12.0707 Y-1.1137
G00 X12.0707 Y-1.1137
G01 F60.00
G01 Z-1.7500
G01 F120.00
G01 X0.0007 Y-1.1137
G01 X-0.1072 Y-1.1084
G01 X-0.2139 Y-1.0925
G01 X-0.3186 Y-1.0663
G01 X-0.4203 Y-1.0300
G01 X-0.5179 Y-0.9838
G01 X-0.6105 Y-0.9283
G01 X-0.6972 Y-0.8640
G01 X-0.7772 Y-0.7915
G01 X-0.8496 Y-0.7115
G01 X-0.9140 Y-0.6248
G01 X-0.9694 Y-0.5322
G01 X-1.0156 Y-0.4346
G01 X-1.0520 Y-0.3330
G01 X-1.0782 Y-0.2283
G01 X-1.0940 Y-0.1215
G01 X-1.0993 Y-0.0137
G01 X-1.0993 Y10.1513
G00 Z2.0000
G00 X-1.0993 Y14.1513
G01 F60.00
G01 Z-0.4500
G01 F120.00
G01 X-1.0993 Y24.1163
G01 X-1.0940 Y24.2241
G01 X-1.0782 Y24.3309
G01 X-1.0520 Y24.4356
G01 X-1.0156 Y24.5373
G01 X-0.9694 Y24.6349
G01 X-0.9140 Y24.7274
G01 X-0.8496 Y24.8141
G01 X-0.7772 Y24.8941
G01 X-0.6972 Y24.9666
G01 X-0.6105 Y25.0309
G01 X-0.5179 Y25.0864
G01 X-0.4203 Y25.1326
G01 X-0.3186 Y25.1689
G01 X-0.2139 Y25.1952
G01 X-0.1072 Y25.2110
G01 X0.0007 Y25.2163
G01 X12.0707 Y25.2163
G00 X12.0707 Y25.2163
G01 F60.00
G01 Z-0.9000
G01 F120.00
G01 X0.0007 Y25.2163
G01 X-0.1072 Y25.2110
G01 X-0.2139 Y25.1952
G01 X-0.3186 Y25.1689
G01 X-0.4203 Y25.1326
G01 X-0.5179 Y25.0864
G01 X-0.6105 Y25.0309
G01 X-0.6972 Y24.9666
G01 X-0.7772 Y24.8941
G01 X-0.8496 Y24.8141
G01 X-0.9140 Y24.7274
G01 X-0.9694 Y24.6349
G01 X-1.0156 Y24.5373
G01 X-1.0520 Y24.4356
G01 X-1.0782 Y24.3309
G01 X-1.0940 Y24.2241
G01 X-1.0993 Y24.1163
G01 X-1.0993 Y14.1513
G00 X-1.0993 Y14.1513
G01 F60.00
G01 Z-1.3500
G01 F120.00
G01 X-1.0993 Y24.1163
G01 X-1.0940 Y24.2241
G01 X-1.0782 Y24.3309
G01 X-1.0520 Y24.4356
G01 X-1.0156 Y24.5373
G01 X-0.9694 Y24.6349
G01 X-0.9140 Y24.7274
G01 X-0.8496 Y24.8141
G01 X-0.7772 Y24.8941
G01 X-0.6972 Y24.9666
G01 X-0.6105 Y25.0309
G01 X-0.5179 Y25.0864
G01 X-0.4203 Y25.1326
G01 X-0.3186 Y25.1689
G01 X-0.2139 Y25.1952
G01 X-0.1072 Y25.2110
G01 X0.0007 Y25.2163
G01 X12.0707 Y25.2163
G00 X12.0707 Y25.2163
G01 F60.00
G01 Z-1.7500
G01 F120.00
G01 X0.0007 Y25.2163
G01 X-0.1072 Y25.2110
G01 X-0.2139 Y25.1952
G01 X-0.3186 Y25.1689
G01 X-0.4203 Y25.1326
G01 X-0.5179 Y25.0864
G01 X-0.6105 Y25.0309
G01 X-0.6972 Y24.9666
G01 X-0.7772 Y24.8941
G01 X-0.8496 Y24.8141
G01 X-0.9140 Y24.7274
G01 X-0.9694 Y24.6349
G01 X-1.0156 Y24.5373
G01 X-1.0520 Y24.4356
G01 X-1.0782 Y24.3309
G01 X-1.0940 Y24.2241
G01 X-1.0993 Y24.1163
G01 X-1.0993 Y14.1513
G00 Z2.0000
G00 X16.0707 Y25.2163
G01 F60.00
G01 Z-0.4500
G01 F120.00
G01 X27.9407 Y25.2163
G01 X28.0485 Y25.2110
G01 X28.1553 Y25.1952
G01 X28.2600 Y25.1689
G01 X28.3616 Y25.1326
G01 X28.4592 Y25.0864
G01 X28.5518 Y25.0309
G01 X28.6385 Y24.9666
G01 X28.7185 Y24.8941
G01 X28.7910 Y24.8141
G01 X28.8553 Y24.7274
G01 X28.9108 Y24.6349
G01 X28.9569 Y24.5373
G01 X28.9933 Y24.4356
G01 X29.0195 Y24.3309
G01 X29.0354 Y24.2241
G01 X29.0407 Y24.1163
G01 X29.0407 Y14.1513
G00 X29.0407 Y14.1513
G01 F60.00
G01 Z-0.9000
G01 F120.00
G01 X29.0407 Y24.1163
G01 X29.0354 Y24.2241
G01 X29.0195 Y24.3309
G01 X28.9933 Y24.4356
G01 X28.9569 Y24.5373
G01 X28.9108 Y24.6349
G01 X28.8553 Y24.7274
G01 X28.7910 Y24.8141
G01 X28.7185 Y24.8941
G01 X28.6385 Y24.9666
G01 X28.5518 Y25.0309
G01 X28.4592 Y25.0864
G01 X28.3616 Y25.1326
G01 X28.2600 Y25.1689
G01 X28.1553 Y25.1952
G01 X28.0485 Y25.2110
G01 X27.9407 Y25.2163
G01 X16.0707 Y25.2163
G00 X16.0707 Y25.2163
G01 F60.00
G01 Z-1.3500
G01 F120.00
G01 X27.9407 Y25.2163
G01 X28.0485 Y25.2110
G01 X28.1553 Y25.1952
G01 X28.2600 Y25.1689
G01 X28.3616 Y25.1326
G01 X28.4592 Y25.0864
G01 X28.5518 Y25.0309
G01 X28.6385 Y24.9666
G01 X28.7185 Y24.8941
G01 X28.7910 Y24.8141
G01 X28.8553 Y24.7274
G01 X28.9108 Y24.6349
G01 X28.9569 Y24.5373
G01 X28.9933 Y24.4356
G01 X29.0195 Y24.3309
G01 X29.0354 Y24.2241
G01 X29.0407 Y24.1163
G01 X29.0407 Y14.1513
G00 X29.0407 Y14.1513
G01 F60.00
G01 Z-1.7500
G01 F120.00
G01 X29.0407 Y24.1163
G01 X29.0354 Y24.2241
G01 X29.0195 Y24.3309
G01 X28.9933 Y24.4356
G01 X28.9569 Y24.5373
G01 X28.9108 Y24.6349
G01 X28.8553 Y24.7274
G01 X28.7910 Y24.8141
G01 X28.7185 Y24.8941
G01 X28.6385 Y24.9666
G01 X28.5518 Y25.0309
G01 X28.4592 Y25.0864
G01 X28.3616 Y25.1326
G01 X28.2600 Y25.1689
G01 X28.1553 Y25.1952
G01 X28.0485 Y25.2110
G01 X27.9407 Y25.2163
G01 X16.0707 Y25.2163
G00 Z2.0000
G00 X29.0407 Y10.1513
G01 F60.00
G01 Z-0.4500
G01 F120.00
G01 X29.0407 Y-0.0137
G01 X29.0354 Y-0.1215
G01 X29.0195 Y-0.2283
G01 X28.9933 Y-0.3330
G01 X28.9569 Y-0.4346
G01 X28.9108 Y-0.5322
G01 X28.8553 Y-0.6248
G01 X28.7910 Y-0.7115
G01 X28.7185 Y-0.7915
G01 X28.6385 Y-0.8640
G01 X28.5518 Y-0.9283
G01 X28.4592 Y-0.9838
G01 X28.3616 Y-1.0300
G01 X28.2600 Y-1.0663
G01 X28.1553 Y-1.0925
G01 X28.0485 Y-1.1084
G01 X27.9407 Y-1.1137
G01 X16.0707 Y-1.1137
G00 X16.0707 Y-1.1137
G01 F60.00
G01 Z-0.9000
G01 F120.00
G01 X27.9407 Y-1.1137
G01 X28.0485 Y-1.1084
G01 X28.1553 Y-1.0925
G01 X28.2600 Y-1.0663
G01 X28.3616 Y-1.0300
G01 X28.4592 Y-0.9838
G01 X28.5518 Y-0.9283
G01 X28.6385 Y-0.8640
G01 X28.7185 Y-0.7915
G01 X28.7910 Y-0.7115
G01 X28.8553 Y-0.6248
G01 X28.9108 Y-0.5322
G01 X28.9569 Y-0.4346
G01 X28.9933 Y-0.3330
G01 X29.0195 Y-0.2283
G01 X29.0354 Y-0.1215
G01 X29.0407 Y-0.0137
G01 X29.0407 Y10.1513
G00 X29.0407 Y10.1513
G01 F60.00
G01 Z-1.3500
G01 F120.00
G01 X29.0407 Y-0.0137
G01 X29.0354 Y-0.1215
G01 X29.0195 Y-0.2283
G01 X28.9933 Y-0.3330
G01 X28.9569 Y-0.4346
G01 X28.9108 Y-0.5322
G01 X28.8553 Y-0.6248
G01 X28.7910 Y-0.7115
G01 X28.7185 Y-0.7915
G01 X28.6385 Y-0.8640
G01 X28.5518 Y-0.9283
G01 X28.4592 Y-0.9838
G01 X28.3616 Y-1.0300
G01 X28.2600 Y-1.0663
G01 X28.1553 Y-1.0925
G01 X28.0485 Y-1.1084
G01 X27.9407 Y-1.1137
G01 X16.0707 Y-1.1137
G00 X16.0707 Y-1.1137
G01 F60.00
G01 Z-1.7500
G01 F120.00
G01 X27.9407 Y-1.1137
G01 X28.0485 Y-1.1084
G01 X28.1553 Y-1.0925
G01 X28.2600 Y-1.0663
G01 X28.3616 Y-1.0300
G01 X28.4592 Y-0.9838
G01 X28.5518 Y-0.9283
G01 X28.6385 Y-0.8640
G01 X28.7185 Y-0.7915
G01 X28.7910 Y-0.7115
G01 X28.8553 Y-0.6248
G01 X28.9108 Y-0.5322
G01 X28.9569 Y-0.4346
G01 X28.9933 Y-0.3330
G01 X29.0195 Y-0.2283
G01 X29.0354 Y-0.1215
G01 X29.0407 Y-0.0137
G01 X29.0407 Y10.1513
G00 Z2.0000
M05
G00 Z2.0000
G00 Z15.00


M159 ; Stop cooling pump

