(G-CODE GENERATED BY FLATCAM v8.994 - www.flatcam.org - Version Date: 2020/11/7)

(Name: AlimThermostats-B_Cu.gbr_edit_iso_combined_1_cnc)
(Type: G-code from Geometry)
(Units: MM)

(Created on Thursday, 12 January 2023 at 11:58)

(This preprocessor is the default preprocessor used by FlatCAM.)
(It is made to work with MACH3 compatible motion controllers.)

(TOOL DIAMETER: 0.2 mm)
(Feedrate_XY: 80.0 mm/min)
(Feedrate_Z: 60.0 mm/min)
(Feedrate rapids 200.0 mm/min)

(Z_Cut: 0.0 mm)
(Z_Move: 2.0 mm)
(Z Start: 5.0 mm)
(Z End: 15.0 mm)
(X,Y End: None mm)
(Steps per circle: 64)
(Preprocessor Geometry: default)

(X range:   -0.2593 ...   28.2007  mm)
(Y range:   -0.2737 ...   24.3763  mm)

(Spindle Speed: 15000.0 RPM)
G21
G90
G94

M158 ; Start cooling pump

G01 F80.00

M5
G00 Z5.0000
G00 X0.0000 Y0.0000
T1
M6    
(MSG, Change to Tool Dia = 0.2000)
M0
G00 Z5.0000

M03 S15000.0
G4 P1.0
G01 F80.00
G00 X-0.0992 Y0.1076
G01 F60.00
G01 Z0.0000
G01 F80.00
G01 X-0.0983 Y0.0981
G01 X-0.0959 Y0.0864
G01 X-0.0730 Y0.0091
G01 X-0.0690 Y-0.0001
G01 X-0.0641 Y-0.0088
G01 X-0.0568 Y-0.0190
G01 X-0.0501 Y-0.0264
G01 X0.0107 Y-0.0795
G01 X0.0209 Y-0.0868
G01 X0.0296 Y-0.0917
G01 X0.0411 Y-0.0966
G01 X0.0531 Y-0.1000
G01 X0.1080 Y-0.1119
G01 X0.1160 Y-0.1131
G01 X0.1267 Y-0.1137
G01 X27.8147 Y-0.1137
G01 X27.8265 Y-0.1130
G01 X27.8382 Y-0.1109
G01 X27.9132 Y-0.0889
G01 X27.9225 Y-0.0855
G01 X27.9315 Y-0.0810
G01 X27.9400 Y-0.0757
G01 X27.9479 Y-0.0696
G01 X27.9568 Y-0.0609
G01 X28.0065 Y-0.0036
G01 X28.0138 Y0.0065
G01 X28.0187 Y0.0152
G01 X28.0236 Y0.0267
G01 X28.0270 Y0.0387
G01 X28.0389 Y0.0937
G01 X28.0401 Y0.1016
G01 X28.0407 Y0.1123
G01 X28.0407 Y23.9903
G01 X28.0400 Y24.0022
G01 X28.0378 Y24.0139
G01 X28.0159 Y24.0889
G01 X28.0124 Y24.0981
G01 X28.0080 Y24.1071
G01 X28.0027 Y24.1156
G01 X27.9966 Y24.1235
G01 X27.9879 Y24.1324
G01 X27.9306 Y24.1821
G01 X27.9226 Y24.1881
G01 X27.9118 Y24.1944
G01 X27.9003 Y24.1992
G01 X27.8883 Y24.2026
G01 X27.8333 Y24.2146
G01 X27.8254 Y24.2157
G01 X27.8147 Y24.2163
G01 X0.1267 Y24.2163
G01 X0.1148 Y24.2156
G01 X0.1031 Y24.2135
G01 X0.0281 Y24.1916
G01 X0.0188 Y24.1881
G01 X0.0099 Y24.1837
G01 X0.0014 Y24.1783
G01 X-0.0066 Y24.1722
G01 X-0.0155 Y24.1636
G01 X-0.0651 Y24.1062
G01 X-0.0725 Y24.0961
G01 X-0.0774 Y24.0874
G01 X-0.0823 Y24.0759
G01 X-0.0857 Y24.0639
G01 X-0.0976 Y24.0089
G01 X-0.0990 Y23.9983
G01 X-0.0993 Y23.9903
G01 X-0.0992 Y0.1076
G00 Z2.0000
G00 X-0.2590 Y0.0999
G01 F60.00
G01 Z0.0000
G01 F80.00
G01 X-0.2582 Y0.0876
G01 X-0.2567 Y0.0753
G01 X-0.2546 Y0.0631
G01 X-0.2520 Y0.0510
G01 X-0.2488 Y0.0391
G01 X-0.2288 Y-0.0291
G01 X-0.2250 Y-0.0408
G01 X-0.2205 Y-0.0530
G01 X-0.2153 Y-0.0650
G01 X-0.2095 Y-0.0767
G01 X-0.1998 Y-0.0936
G01 X-0.1926 Y-0.1045
G01 X-0.1849 Y-0.1150
G01 X-0.1767 Y-0.1251
G01 X-0.1680 Y-0.1348
G01 X-0.1588 Y-0.1440
G01 X-0.1496 Y-0.1523
G01 X-0.0959 Y-0.1988
G01 X-0.0807 Y-0.2110
G01 X-0.0701 Y-0.2185
G01 X-0.0535 Y-0.2287
G01 X-0.0421 Y-0.2348
G01 X-0.0303 Y-0.2403
G01 X-0.0122 Y-0.2475
G01 X0.0064 Y-0.2533
G01 X0.0191 Y-0.2564
G01 X0.0714 Y-0.2677
G01 X0.0851 Y-0.2703
G01 X0.0989 Y-0.2722
G01 X0.1127 Y-0.2733
G01 X0.1267 Y-0.2737
G01 X27.8147 Y-0.2737
G01 X27.8332 Y-0.2730
G01 X27.8455 Y-0.2718
G01 X27.8578 Y-0.2701
G01 X27.8699 Y-0.2677
G01 X27.8879 Y-0.2632
G01 X27.9560 Y-0.2432
G01 X27.9678 Y-0.2394
G01 X27.9860 Y-0.2323
G01 X27.9979 Y-0.2268
G01 X28.0094 Y-0.2208
G01 X28.0206 Y-0.2142
G01 X28.0315 Y-0.2070
G01 X28.0420 Y-0.1993
G01 X28.0521 Y-0.1910
G01 X28.0617 Y-0.1823
G01 X28.0752 Y-0.1686
G01 X28.1300 Y-0.1053
G01 X28.1418 Y-0.0898
G01 X28.1490 Y-0.0790
G01 X28.1557 Y-0.0679
G01 X28.1618 Y-0.0564
G01 X28.1698 Y-0.0387
G01 X28.1745 Y-0.0265
G01 X28.1785 Y-0.0142
G01 X28.1833 Y0.0047
G01 X28.1947 Y0.0570
G01 X28.1973 Y0.0707
G01 X28.1998 Y0.0915
G01 X28.2007 Y0.1123
G01 X28.2007 Y23.9903
G01 X28.2000 Y24.0089
G01 X28.1988 Y24.0212
G01 X28.1971 Y24.0334
G01 X28.1947 Y24.0456
G01 X28.1901 Y24.0636
G01 X28.1701 Y24.1317
G01 X28.1664 Y24.1435
G01 X28.1593 Y24.1617
G01 X28.1538 Y24.1735
G01 X28.1478 Y24.1850
G01 X28.1411 Y24.1963
G01 X28.1340 Y24.2071
G01 X28.1262 Y24.2176
G01 X28.1180 Y24.2277
G01 X28.1093 Y24.2374
G01 X28.0956 Y24.2508
G01 X28.0323 Y24.3056
G01 X28.0221 Y24.3136
G01 X28.0115 Y24.3211
G01 X27.9949 Y24.3313
G01 X27.9834 Y24.3374
G01 X27.9716 Y24.3430
G01 X27.9535 Y24.3501
G01 X27.9411 Y24.3541
G01 X27.9223 Y24.3590
G01 X27.8699 Y24.3704
G01 X27.8563 Y24.3730
G01 X27.8355 Y24.3755
G01 X27.8147 Y24.3763
G01 X0.1267 Y24.3763
G01 X0.1143 Y24.3760
G01 X0.1020 Y24.3751
G01 X0.0836 Y24.3727
G01 X0.0714 Y24.3704
G01 X0.0534 Y24.3658
G01 X-0.0147 Y24.3458
G01 X-0.0265 Y24.3420
G01 X-0.0387 Y24.3374
G01 X-0.0506 Y24.3323
G01 X-0.0623 Y24.3265
G01 X-0.0737 Y24.3202
G01 X-0.0848 Y24.3133
G01 X-0.0954 Y24.3058
G01 X-0.1107 Y24.2937
G01 X-0.1204 Y24.2849
G01 X-0.1338 Y24.2712
G01 X-0.1886 Y24.2080
G01 X-0.2005 Y24.1925
G01 X-0.2077 Y24.1817
G01 X-0.2143 Y24.1705
G01 X-0.2204 Y24.1590
G01 X-0.2285 Y24.1413
G01 X-0.2331 Y24.1292
G01 X-0.2372 Y24.1168
G01 X-0.2420 Y24.0979
G01 X-0.2534 Y24.0456
G01 X-0.2560 Y24.0319
G01 X-0.2585 Y24.0112
G01 X-0.2593 Y23.9903
G01 X-0.2593 Y0.1123
G01 X-0.2590 Y0.0999
G00 Z2.0000
G00 X4.7432 Y4.7682
G01 F60.00
G01 Z0.0000
G01 F80.00
G01 X4.7163 Y4.7811
G01 X4.7050 Y4.7871
G01 X4.6499 Y4.8201
G01 X4.6341 Y4.8310
G01 X4.5927 Y4.8617
G01 X4.5825 Y4.8696
G01 X4.5759 Y4.8518
G01 X4.5679 Y4.8344
G01 X4.5587 Y4.8176
G01 X4.5482 Y4.8016
G01 X4.5366 Y4.7864
G01 X4.5240 Y4.7720
G01 X4.5103 Y4.7587
G01 X4.5005 Y4.7502
G01 X4.5437 Y4.7657
G01 X4.5619 Y4.7710
G01 X4.5811 Y4.7751
G01 X4.5941 Y4.7771
G01 X4.6072 Y4.7784
G01 X4.6269 Y4.7790
G01 X4.6458 Y4.7783
G01 X4.6958 Y4.7734
G01 X4.7086 Y4.7729
G01 X4.7213 Y4.7717
G01 X4.7432 Y4.7682
G00 Z2.0000
G00 X4.4804 Y6.0996
G01 F60.00
G01 Z0.0000
G01 F80.00
G01 X4.4677 Y6.0482
G01 X4.4593 Y5.9924
G01 X4.4583 Y5.9827
G01 X4.4557 Y5.9288
G01 X4.4557 Y5.4763
G01 X4.4585 Y5.4175
G01 X4.4593 Y5.4102
G01 X4.4677 Y5.3544
G01 X4.4813 Y5.2996
G01 X4.4841 Y5.2902
G01 X4.5032 Y5.2371
G01 X4.5273 Y5.1861
G01 X4.5319 Y5.1774
G01 X4.5597 Y5.1311
G01 X4.5945 Y5.0837
G01 X4.6007 Y5.0761
G01 X4.6387 Y5.0344
G01 X4.6842 Y4.9932
G01 X4.7334 Y4.9566
G01 X4.7818 Y4.9275
G01 X4.7904 Y4.9229
G01 X4.8370 Y4.9009
G01 X4.8461 Y4.8971
G01 X4.8992 Y4.8782
G01 X4.9587 Y4.8633
G01 X5.0194 Y4.8543
G01 X5.0758 Y4.8514
G01 X5.0856 Y4.8514
G01 X5.1370 Y4.8540
G01 X5.1468 Y4.8549
G01 X5.2026 Y4.8633
G01 X5.2597 Y4.8775
G01 X5.2668 Y4.8798
G01 X5.3198 Y4.8989
G01 X5.3709 Y4.9229
G01 X5.3796 Y4.9275
G01 X5.4279 Y4.9566
G01 X5.4733 Y4.9902
G01 X5.4809 Y4.9964
G01 X5.5226 Y5.0344
G01 X5.5638 Y5.0798
G01 X5.5975 Y5.1251
G01 X5.6030 Y5.1332
G01 X5.6319 Y5.1817
G01 X5.6561 Y5.2327
G01 X5.6599 Y5.2417
G01 X5.6780 Y5.2925
G01 X5.6926 Y5.3496
G01 X5.6945 Y5.3592
G01 X5.7027 Y5.4151
G01 X5.7057 Y5.4763
G01 X5.7055 Y5.9312
G01 X5.7030 Y5.9827
G01 X5.7021 Y5.9924
G01 X5.6937 Y6.0482
G01 X5.6809 Y6.0996
G01 X5.6809 Y6.7227
G01 X5.9643 Y7.0061
G01 X7.0183 Y7.0061
G01 X7.0812 Y6.9490
G01 X7.1442 Y6.9021
G01 X7.1524 Y6.8966
G01 X7.2155 Y6.8588
G01 X7.2242 Y6.8541
G01 X7.2952 Y6.8207
G01 X7.3738 Y6.7926
G01 X7.4548 Y6.7723
G01 X7.5373 Y6.7600
G01 X7.6158 Y6.7561
G01 X7.6256 Y6.7561
G01 X7.7040 Y6.7600
G01 X7.7817 Y6.7714
G01 X7.7914 Y6.7734
G01 X7.8675 Y6.7926
G01 X7.9461 Y6.8207
G01 X8.0215 Y6.8564
G01 X8.0931 Y6.8993
G01 X8.1601 Y6.9490
G01 X8.2202 Y7.0033
G01 X9.8779 Y8.6609
G01 X16.5107 Y8.6609
G01 X16.5891 Y8.6647
G01 X16.5989 Y8.6656
G01 X16.6766 Y8.6773
G01 X16.7528 Y8.6962
G01 X16.7622 Y8.6991
G01 X16.8315 Y8.7239
G01 X16.8406 Y8.7277
G01 X16.9115 Y8.7614
G01 X16.9790 Y8.8016
G01 X16.9871 Y8.8071
G01 X17.0501 Y8.8540
G01 X17.1120 Y8.9100
G01 X17.1680 Y8.9718
G01 X17.2177 Y9.0389
G01 X17.2606 Y9.1105
G01 X17.2963 Y9.1859
G01 X17.3244 Y9.2645
G01 X17.3436 Y9.3406
G01 X17.3455 Y9.3503
G01 X17.3569 Y9.4280
G01 X17.3609 Y9.5064
G01 X17.3609 Y9.5162
G01 X17.3573 Y9.5898
G01 X17.3563 Y9.5995
G01 X17.3447 Y9.6772
G01 X17.3251 Y9.7558
G01 X17.2981 Y9.8322
G01 X17.2943 Y9.8412
G01 X17.2606 Y9.9122
G01 X17.2177 Y9.9838
G01 X17.1680 Y10.0508
G01 X17.1154 Y10.1091
G01 X17.1084 Y10.1160
G01 X17.0501 Y10.1687
G01 X16.9831 Y10.2184
G01 X16.9158 Y10.2589
G01 X16.9071 Y10.2635
G01 X16.8361 Y10.2970
G01 X16.7575 Y10.3251
G01 X16.6814 Y10.3443
G01 X16.6717 Y10.3462
G01 X16.5916 Y10.3578
G01 X16.5107 Y10.3617
G01 X9.5257 Y10.3617
G01 X9.4472 Y10.3580
G01 X9.4374 Y10.3570
G01 X9.3598 Y10.3454
G01 X9.2812 Y10.3258
G01 X9.2742 Y10.3235
G01 X9.2002 Y10.2970
G01 X9.1292 Y10.2635
G01 X9.1205 Y10.2589
G01 X9.0532 Y10.2184
G01 X8.9901 Y10.1717
G01 X8.9825 Y10.1655
G01 X8.9261 Y10.1143
G01 X7.0183 Y8.2066
G01 X5.7157 Y8.2066
G01 X5.6593 Y8.2039
G01 X5.6034 Y8.1959
G01 X5.5938 Y8.1940
G01 X5.5414 Y8.1807
G01 X5.4860 Y8.1609
G01 X5.4327 Y8.1357
G01 X5.3863 Y8.1080
G01 X5.3782 Y8.1026
G01 X5.3330 Y8.0687
G01 X5.2912 Y8.0308
G01 X4.6545 Y7.3940
G01 X4.6167 Y7.3521
G01 X4.5816 Y7.3048
G01 X4.5513 Y7.2543
G01 X4.5271 Y7.2033
G01 X4.5243 Y7.1964
G01 X4.5063 Y7.1456
G01 X4.4919 Y7.0884
G01 X4.4833 Y7.0302
G01 X4.4805 Y6.9762
G01 X4.4804 Y6.0996
G00 Z2.0000
G00 X4.4457 Y7.3893
G01 F60.00
G01 Z0.0000
G01 F80.00
G01 X4.4559 Y7.4041
G01 X4.4851 Y7.4436
G01 X4.4930 Y7.4536
G01 X4.5013 Y7.4633
G01 X4.5386 Y7.5043
G01 X4.6523 Y7.6181
G01 X4.6248 Y7.6005
G01 X4.6135 Y7.5940
G01 X4.6019 Y7.5881
G01 X4.5901 Y7.5828
G01 X4.5779 Y7.5781
G01 X4.5656 Y7.5740
G01 X4.5531 Y7.5705
G01 X4.5340 Y7.5665
G01 X4.5147 Y7.5639
G01 X4.4374 Y7.5583
G01 X4.4186 Y7.5576
G01 X4.3990 Y7.5584
G01 X4.3796 Y7.5606
G01 X4.3668 Y7.5629
G01 X4.3541 Y7.5658
G01 X4.3354 Y7.5714
G01 X4.3171 Y7.5784
G01 X4.2997 Y7.5865
G01 X4.2358 Y7.6214
G01 X4.3527 Y7.5043
G01 X4.3900 Y7.4633
G01 X4.3983 Y7.4536
G01 X4.4062 Y7.4436
G01 X4.4354 Y7.4041
G01 X4.4457 Y7.3893
G00 Z2.0000
G00 X3.0377 Y6.5295
G01 F60.00
G01 Z0.0000
G01 F80.00
G01 X3.0431 Y6.5449
G01 X3.0504 Y6.5620
G01 X3.0504 Y6.6564
G01 X2.9828 Y6.7241
G01 X2.9930 Y6.7072
G01 X3.0015 Y6.6906
G01 X3.0087 Y6.6735
G01 X3.0129 Y6.6619
G01 X3.0165 Y6.6500
G01 X3.0207 Y6.6323
G01 X3.0343 Y6.5567
G01 X3.0362 Y6.5445
G01 X3.0377 Y6.5295
G00 Z2.0000
G00 X3.3009 Y8.6338
G01 F60.00
G01 Z0.0000
G01 F80.00
G01 X3.3009 Y8.5562
G01 X3.3440 Y8.5131
G01 X3.3388 Y8.5226
G01 X3.3331 Y8.5341
G01 X3.3281 Y8.5458
G01 X3.3236 Y8.5577
G01 X3.3197 Y8.5699
G01 X3.3009 Y8.6338
G00 Z2.0000
G00 X3.5986 Y10.6913
G01 F60.00
G01 Z0.0000
G01 F80.00
G01 X3.3009 Y10.6913
G01 X3.3009 Y10.3988
G01 X3.3080 Y10.4308
G01 X3.3113 Y10.4433
G01 X3.3154 Y10.4557
G01 X3.3200 Y10.4678
G01 X3.3252 Y10.4797
G01 X3.3310 Y10.4913
G01 X3.3374 Y10.5026
G01 X3.3480 Y10.5190
G01 X3.3599 Y10.5345
G01 X3.4105 Y10.5931
G01 X3.4234 Y10.6069
G01 X3.4329 Y10.6159
G01 X3.4428 Y10.6243
G01 X3.4584 Y10.6361
G01 X3.4748 Y10.6467
G01 X3.4920 Y10.6560
G01 X3.5098 Y10.6639
G01 X3.5279 Y10.6705
G01 X3.5986 Y10.6913
G00 Z2.0000
G00 X1.7804 Y10.3942
G01 F60.00
G01 Z0.0000
G01 F80.00
G01 X1.7804 Y10.6913
G01 X1.4870 Y10.6913
G01 X1.5201 Y10.6840
G01 X1.5326 Y10.6806
G01 X1.5450 Y10.6766
G01 X1.5571 Y10.6720
G01 X1.5690 Y10.6668
G01 X1.5807 Y10.6609
G01 X1.5920 Y10.6546
G01 X1.6083 Y10.6439
G01 X1.6238 Y10.6321
G01 X1.6824 Y10.5814
G01 X1.6962 Y10.5686
G01 X1.7052 Y10.5591
G01 X1.7137 Y10.5492
G01 X1.7255 Y10.5336
G01 X1.7360 Y10.5172
G01 X1.7453 Y10.5000
G01 X1.7533 Y10.4822
G01 X1.7598 Y10.4641
G01 X1.7804 Y10.3942
G00 Z2.0000
G00 X1.4358 Y10.8514
G01 F60.00
G01 Z0.0000
G01 F80.00
G01 X1.9404 Y10.8513
G01 X1.9404 Y8.2389
G01 X1.9433 Y8.1825
G01 X1.9519 Y8.1242
G01 X1.9663 Y8.0671
G01 X1.9843 Y8.0162
G01 X1.9871 Y8.0094
G01 X2.0113 Y7.9584
G01 X2.0416 Y7.9078
G01 X2.0767 Y7.8605
G01 X2.1145 Y7.8186
G01 X3.2104 Y6.7227
G01 X3.2104 Y6.5172
G01 X3.2053 Y6.5109
G01 X3.1999 Y6.5027
G01 X3.1963 Y6.4963
G01 X3.1924 Y6.4873
G01 X3.1900 Y6.4803
G01 X3.1876 Y6.4708
G01 X3.1861 Y6.4611
G01 X3.1857 Y6.4513
G01 X3.1857 Y4.9513
G01 X3.1864 Y4.9391
G01 X3.1887 Y4.9270
G01 X3.1915 Y4.9176
G01 X3.1963 Y4.9064
G01 X3.1999 Y4.8999
G01 X3.2039 Y4.8937
G01 X3.2116 Y4.8842
G01 X3.2167 Y4.8789
G01 X3.2222 Y4.8740
G01 X3.2322 Y4.8668
G01 X3.2429 Y4.8609
G01 X3.2497 Y4.8580
G01 X3.2566 Y4.8556
G01 X3.2686 Y4.8528
G01 X3.2808 Y4.8514
G01 X4.3357 Y4.8513
G01 X4.3455 Y4.8518
G01 X4.3576 Y4.8537
G01 X4.3694 Y4.8572
G01 X4.3806 Y4.8620
G01 X4.3871 Y4.8655
G01 X4.3932 Y4.8696
G01 X4.4028 Y4.8772
G01 X4.4081 Y4.8824
G01 X4.4130 Y4.8879
G01 X4.4174 Y4.8937
G01 X4.4214 Y4.8999
G01 X4.4271 Y4.9108
G01 X4.4298 Y4.9176
G01 X4.4320 Y4.9246
G01 X4.4337 Y4.9318
G01 X4.4349 Y4.9391
G01 X4.4357 Y4.9513
G01 X4.4356 Y6.4538
G01 X4.4352 Y6.4611
G01 X4.4337 Y6.4708
G01 X4.4320 Y6.4780
G01 X4.4290 Y6.4873
G01 X4.4250 Y6.4963
G01 X4.4214 Y6.5027
G01 X4.4160 Y6.5109
G01 X4.4109 Y6.5172
G01 X4.4108 Y6.9762
G01 X4.4080 Y7.0302
G01 X4.4002 Y7.0836
G01 X4.3983 Y7.0932
G01 X4.3843 Y7.1479
G01 X4.3652 Y7.2010
G01 X4.3422 Y7.2499
G01 X4.3376 Y7.2585
G01 X4.3098 Y7.3048
G01 X4.2777 Y7.3482
G01 X4.2715 Y7.3558
G01 X4.2385 Y7.3922
G01 X3.1409 Y8.4899
G01 X3.1409 Y10.8513
G01 X3.6407 Y10.8513
G01 X3.6480 Y10.8516
G01 X3.6553 Y10.8524
G01 X3.6626 Y10.8537
G01 X3.6697 Y10.8556
G01 X3.6789 Y10.8589
G01 X3.6856 Y10.8620
G01 X3.6921 Y10.8655
G01 X3.6982 Y10.8696
G01 X3.7060 Y10.8756
G01 X3.7114 Y10.8806
G01 X3.7180 Y10.8879
G01 X3.7224 Y10.8937
G01 X3.7264 Y10.8999
G01 X3.7300 Y10.9064
G01 X3.7340 Y10.9153
G01 X3.7364 Y10.9223
G01 X3.7387 Y10.9318
G01 X3.7399 Y10.9391
G01 X3.7407 Y10.9513
G01 X3.7406 Y13.1538
G01 X3.7399 Y13.1636
G01 X3.7387 Y13.1708
G01 X3.7370 Y13.1780
G01 X3.7348 Y13.1850
G01 X3.7321 Y13.1918
G01 X3.7289 Y13.1985
G01 X3.7252 Y13.2048
G01 X3.7195 Y13.2128
G01 X3.7148 Y13.2185
G01 X3.7096 Y13.2237
G01 X3.7022 Y13.2301
G01 X3.6962 Y13.2345
G01 X3.6900 Y13.2383
G01 X3.6834 Y13.2417
G01 X3.6767 Y13.2446
G01 X3.6691 Y13.2472
G01 X4.1629 Y13.7409
G01 X6.2150 Y13.7409
G01 X6.2686 Y13.7333
G01 X6.3458 Y13.7294
G01 X6.3531 Y13.7293
G01 X6.4303 Y13.7331
G01 X6.4400 Y13.7341
G01 X6.5188 Y13.7459
G01 X6.5962 Y13.7651
G01 X6.6056 Y13.7680
G01 X6.6805 Y13.7949
G01 X6.7526 Y13.8289
G01 X6.7592 Y13.8323
G01 X6.8296 Y13.8746
G01 X6.8936 Y13.9220
G01 X6.9012 Y13.9282
G01 X6.9566 Y13.9784
G01 X6.9636 Y13.9853
G01 X7.0170 Y14.0445
G01 X7.0646 Y14.1084
G01 X7.0700 Y14.1166
G01 X7.1109 Y14.1850
G01 X7.1470 Y14.2614
G01 X7.1755 Y14.3411
G01 X7.1961 Y14.4231
G01 X7.2085 Y14.5068
G01 X7.2127 Y14.5913
G01 X7.2085 Y14.6758
G01 X7.1969 Y14.7546
G01 X7.1950 Y14.7643
G01 X7.1755 Y14.8415
G01 X7.1488 Y14.9166
G01 X7.1451 Y14.9257
G01 X7.1131 Y14.9933
G01 X7.1085 Y15.0019
G01 X7.0674 Y15.0702
G01 X7.0185 Y15.1362
G01 X7.0138 Y15.1419
G01 X6.9602 Y15.2008
G01 X6.8975 Y15.2577
G01 X6.8296 Y15.3080
G01 X6.7613 Y15.3491
G01 X6.7526 Y15.3537
G01 X6.6805 Y15.3877
G01 X6.6056 Y15.4147
G01 X6.5962 Y15.4175
G01 X6.5236 Y15.4357
G01 X6.5140 Y15.4376
G01 X6.4352 Y15.4492
G01 X6.3531 Y15.4533
G01 X6.3458 Y15.4532
G01 X6.2686 Y15.4494
G01 X6.2150 Y15.4417
G01 X3.8107 Y15.4417
G01 X3.7298 Y15.4378
G01 X3.6496 Y15.4262
G01 X3.6400 Y15.4243
G01 X3.5638 Y15.4051
G01 X3.4852 Y15.3770
G01 X3.4142 Y15.3435
G01 X3.4055 Y15.3389
G01 X3.3382 Y15.2984
G01 X3.2731 Y15.2502
G01 X3.2675 Y15.2455
G01 X3.2094 Y15.1926
G01 X1.9394 Y13.9226
G01 X1.8865 Y13.8645
G01 X1.8818 Y13.8589
G01 X1.8336 Y13.7938
G01 X1.7907 Y13.7222
G01 X1.7550 Y13.6467
G01 X1.7269 Y13.5682
G01 X1.7066 Y13.4872
G01 X1.6947 Y13.4071
G01 X1.6903 Y13.3238
G01 X1.6903 Y13.2513
G01 X1.4407 Y13.2513
G01 X1.4333 Y13.2510
G01 X1.4236 Y13.2498
G01 X1.4116 Y13.2470
G01 X1.4001 Y13.2427
G01 X1.3893 Y13.2371
G01 X1.3791 Y13.2301
G01 X1.3700 Y13.2220
G01 X1.3618 Y13.2128
G01 X1.3575 Y13.2069
G01 X1.3537 Y13.2006
G01 X1.3483 Y13.1896
G01 X1.3450 Y13.1803
G01 X1.3426 Y13.1708
G01 X1.3411 Y13.1611
G01 X1.3407 Y13.1513
G01 X1.3408 Y10.9464
G01 X1.3414 Y10.9391
G01 X1.3431 Y10.9294
G01 X1.3457 Y10.9199
G01 X1.3492 Y10.9108
G01 X1.3525 Y10.9042
G01 X1.3575 Y10.8958
G01 X1.3634 Y10.8879
G01 X1.3700 Y10.8806
G01 X1.3753 Y10.8756
G01 X1.3831 Y10.8696
G01 X1.3914 Y10.8643
G01 X1.4001 Y10.8599
G01 X1.4093 Y10.8564
G01 X1.4188 Y10.8537
G01 X1.4260 Y10.8524
G01 X1.4358 Y10.8514
G00 Z2.0000
G00 X1.4022 Y13.4085
G01 F60.00
G01 Z0.0000
G01 F80.00
G01 X1.4152 Y13.4101
G01 X1.4343 Y13.4112
G01 X1.5344 Y13.4113
G01 X1.5367 Y13.4330
G01 X1.5485 Y13.5122
G01 X1.5525 Y13.5309
G01 X1.5646 Y13.5792
G01 X1.5471 Y13.5455
G01 X1.5377 Y13.5298
G01 X1.5308 Y13.5194
G01 X1.5233 Y13.5095
G01 X1.5154 Y13.4999
G01 X1.5070 Y13.4907
G01 X1.4937 Y13.4776
G01 X1.4797 Y13.4658
G01 X1.4183 Y13.4196
G01 X1.4022 Y13.4085
G00 Z2.0000
G00 X3.9556 Y13.3074
G01 F60.00
G01 Z0.0000
G01 F80.00
G01 X3.8859 Y13.2377
G01 X3.8912 Y13.2207
G01 X3.8943 Y13.2083
G01 X3.8968 Y13.1958
G01 X3.8987 Y13.1831
G01 X3.9021 Y13.1962
G01 X3.9059 Y13.2084
G01 X3.9103 Y13.2204
G01 X3.9153 Y13.2321
G01 X3.9238 Y13.2492
G01 X3.9556 Y13.3074
G00 Z2.0000
G00 X4.3063 Y13.5809
G01 F60.00
G01 Z0.0000
G01 F80.00
G01 X4.2292 Y13.5809
G01 X4.1864 Y13.5382
G01 X4.1955 Y13.5432
G01 X4.2070 Y13.5488
G01 X4.2187 Y13.5539
G01 X4.2306 Y13.5584
G01 X4.2428 Y13.5623
G01 X4.3063 Y13.5809
G00 Z2.0000
G00 X6.7137 Y13.6367
G01 F60.00
G01 Z0.0000
G01 F80.00
G01 X6.6595 Y13.6173
G01 X6.6473 Y13.6133
G01 X6.6350 Y13.6099
G01 X6.5563 Y13.5903
G01 X6.5375 Y13.5868
G01 X6.4635 Y13.5758
G01 X6.4508 Y13.5742
G01 X6.4381 Y13.5733
G01 X6.3634 Y13.5696
G01 X6.3443 Y13.5694
G01 X6.2568 Y13.5737
G01 X6.2441 Y13.5749
G01 X6.2032 Y13.5809
G01 X5.6612 Y13.5809
G01 X5.6741 Y13.5773
G01 X5.6929 Y13.5706
G01 X5.7111 Y13.5626
G01 X5.7286 Y13.5532
G01 X5.7898 Y13.5172
G01 X5.8003 Y13.5106
G01 X5.8111 Y13.5032
G01 X5.8214 Y13.4953
G01 X5.8313 Y13.4869
G01 X5.8408 Y13.4780
G01 X5.8542 Y13.4637
G01 X5.8664 Y13.4485
G01 X5.8740 Y13.4379
G01 X5.8842 Y13.4212
G01 X5.8901 Y13.4103
G01 X5.9248 Y13.3414
G01 X5.9300 Y13.3298
G01 X5.9347 Y13.3177
G01 X5.9406 Y13.2991
G01 X5.9451 Y13.2801
G01 X5.9482 Y13.2608
G01 X5.9498 Y13.2413
G01 X5.9500 Y13.2218
G01 X5.9487 Y13.2029
G01 X5.9407 Y13.1261
G01 X5.9375 Y13.1072
G01 X5.9329 Y13.0882
G01 X5.9269 Y13.0696
G01 X5.9195 Y13.0515
G01 X5.9108 Y13.0341
G01 X5.9007 Y13.0173
G01 X5.8934 Y13.0066
G01 X5.8859 Y12.9967
G01 X5.8337 Y12.9319
G01 X5.8633 Y12.9496
G01 X5.8746 Y12.9556
G01 X5.9537 Y12.9930
G01 X5.9715 Y13.0001
G01 X6.0479 Y13.0274
G01 X6.0663 Y13.0327
G01 X6.1388 Y13.0509
G01 X6.1513 Y13.0537
G01 X6.1639 Y13.0559
G01 X6.2378 Y13.0668
G01 X6.2568 Y13.0689
G01 X6.3379 Y13.0730
G01 X6.3507 Y13.0733
G01 X6.3634 Y13.0730
G01 X6.4381 Y13.0693
G01 X6.4508 Y13.0684
G01 X6.4635 Y13.0668
G01 X6.5438 Y13.0548
G01 X6.5625 Y13.0509
G01 X6.6350 Y13.0327
G01 X6.6473 Y13.0293
G01 X6.6595 Y13.0253
G01 X6.7136 Y13.0059
G01 X6.6558 Y13.0559
G01 X6.6468 Y13.0641
G01 X6.6377 Y13.0732
G01 X6.6291 Y13.0827
G01 X6.6171 Y13.0977
G01 X6.6062 Y13.1136
G01 X6.5965 Y13.1303
G01 X6.5881 Y13.1476
G01 X6.5810 Y13.1655
G01 X6.5772 Y13.1771
G01 X6.5549 Y13.2510
G01 X6.5505 Y13.2697
G01 X6.5474 Y13.2890
G01 X6.5458 Y13.3085
G01 X6.5455 Y13.3215
G01 X6.5459 Y13.3345
G01 X6.5477 Y13.3540
G01 X6.5497 Y13.3669
G01 X6.5539 Y13.3856
G01 X6.5750 Y13.4599
G01 X6.5786 Y13.4717
G01 X6.5856 Y13.4899
G01 X6.5910 Y13.5018
G01 X6.5969 Y13.5134
G01 X6.6069 Y13.5302
G01 X6.6143 Y13.5409
G01 X6.6263 Y13.5563
G01 X6.6350 Y13.5660
G01 X6.6441 Y13.5753
G01 X6.6532 Y13.5837
G01 X6.7137 Y13.6367
G00 Z2.0000
G00 X7.2127 Y12.0513
G01 F60.00
G01 Z0.0000
G01 F80.00
G01 X7.2085 Y12.1358
G01 X7.1961 Y12.2195
G01 X7.1755 Y12.3015
G01 X7.1470 Y12.3812
G01 X7.1109 Y12.4577
G01 X7.0674 Y12.5302
G01 X7.0170 Y12.5982
G01 X6.9602 Y12.6608
G01 X6.8975 Y12.7177
G01 X6.8296 Y12.7680
G01 X6.7570 Y12.8115
G01 X6.6805 Y12.8477
G01 X6.6009 Y12.8762
G01 X6.5188 Y12.8968
G01 X6.4352 Y12.9092
G01 X6.3507 Y12.9133
G01 X6.2662 Y12.9092
G01 X6.1825 Y12.8968
G01 X6.1004 Y12.8762
G01 X6.0208 Y12.8477
G01 X5.9443 Y12.8115
G01 X5.8718 Y12.7680
G01 X5.8038 Y12.7177
G01 X5.7411 Y12.6608
G01 X5.6843 Y12.5982
G01 X5.6339 Y12.5302
G01 X5.5904 Y12.4577
G01 X5.5543 Y12.3812
G01 X5.5258 Y12.3015
G01 X5.5052 Y12.2195
G01 X5.4928 Y12.1358
G01 X5.4887 Y12.0513
G01 X5.4928 Y11.9668
G01 X5.5052 Y11.8831
G01 X5.5258 Y11.8011
G01 X5.5543 Y11.7214
G01 X5.5904 Y11.6450
G01 X5.6339 Y11.5724
G01 X5.6843 Y11.5045
G01 X5.7411 Y11.4418
G01 X5.8038 Y11.3850
G01 X5.8718 Y11.3346
G01 X5.9443 Y11.2911
G01 X6.0208 Y11.2549
G01 X6.1004 Y11.2264
G01 X6.1825 Y11.2059
G01 X6.2662 Y11.1935
G01 X6.3507 Y11.1893
G01 X6.4352 Y11.1935
G01 X6.5188 Y11.2059
G01 X6.6009 Y11.2264
G01 X6.6805 Y11.2549
G01 X6.7570 Y11.2911
G01 X6.8296 Y11.3346
G01 X6.8975 Y11.3850
G01 X6.9602 Y11.4418
G01 X7.0170 Y11.5045
G01 X7.0674 Y11.5724
G01 X7.1109 Y11.6450
G01 X7.1470 Y11.7214
G01 X7.1755 Y11.8011
G01 X7.1961 Y11.8831
G01 X7.2085 Y11.9668
G01 X7.2127 Y12.0513
G00 Z2.0000
G00 X10.2484 Y10.5217
G01 F60.00
G01 Z0.0000
G01 F80.00
G01 X16.5107 Y10.5217
G01 X16.5234 Y10.5214
G01 X16.5970 Y10.5178
G01 X16.6097 Y10.5168
G01 X16.6224 Y10.5153
G01 X16.6952 Y10.5045
G01 X16.7078 Y10.5023
G01 X16.7202 Y10.4995
G01 X16.7917 Y10.4816
G01 X16.8040 Y10.4782
G01 X16.8161 Y10.4742
G01 X16.8854 Y10.4494
G01 X16.8973 Y10.4448
G01 X16.9090 Y10.4396
G01 X16.9756 Y10.4081
G01 X16.9870 Y10.4024
G01 X16.9981 Y10.3961
G01 X17.0612 Y10.3582
G01 X17.0773 Y10.3478
G01 X17.1416 Y10.3002
G01 X17.1516 Y10.2923
G01 X17.1613 Y10.2840
G01 X17.2159 Y10.2346
G01 X17.2251 Y10.2258
G01 X17.2339 Y10.2165
G01 X17.2834 Y10.1620
G01 X17.2917 Y10.1523
G01 X17.2995 Y10.1422
G01 X17.3434 Y10.0831
G01 X17.3508 Y10.0726
G01 X17.3576 Y10.0619
G01 X17.3954 Y9.9987
G01 X17.4047 Y9.9819
G01 X17.4390 Y9.9096
G01 X17.4441 Y9.8980
G01 X17.4487 Y9.8861
G01 X17.4735 Y9.8167
G01 X17.4775 Y9.8046
G01 X17.4809 Y9.7923
G01 X17.4988 Y9.7209
G01 X17.5016 Y9.7084
G01 X17.5038 Y9.6959
G01 X17.5146 Y9.6230
G01 X17.5162 Y9.6103
G01 X17.5171 Y9.5976
G01 X17.5207 Y9.5241
G01 X17.5210 Y9.5113
G01 X17.5207 Y9.4986
G01 X17.5171 Y9.4250
G01 X17.5162 Y9.4123
G01 X17.5146 Y9.3996
G01 X17.5038 Y9.3268
G01 X17.5016 Y9.3142
G01 X17.4988 Y9.3017
G01 X17.4809 Y9.2303
G01 X17.4775 Y9.2180
G01 X17.4735 Y9.2059
G01 X17.4487 Y9.1366
G01 X17.4441 Y9.1247
G01 X17.4390 Y9.1130
G01 X17.4075 Y9.0464
G01 X17.4017 Y9.0350
G01 X17.3954 Y9.0239
G01 X17.3576 Y8.9608
G01 X17.3508 Y8.9500
G01 X17.3434 Y8.9395
G01 X17.2995 Y8.8804
G01 X17.2917 Y8.8703
G01 X17.2834 Y8.8607
G01 X17.2339 Y8.8061
G01 X17.2251 Y8.7969
G01 X17.2159 Y8.7881
G01 X17.1613 Y8.7386
G01 X17.1516 Y8.7303
G01 X17.1416 Y8.7224
G01 X17.0824 Y8.6786
G01 X17.0720 Y8.6712
G01 X17.0612 Y8.6644
G01 X16.9981 Y8.6265
G01 X16.9870 Y8.6202
G01 X16.9756 Y8.6145
G01 X16.9090 Y8.5830
G01 X16.8973 Y8.5779
G01 X16.8854 Y8.5733
G01 X16.8100 Y8.5464
G01 X16.7917 Y8.5410
G01 X16.7202 Y8.5232
G01 X16.7078 Y8.5204
G01 X16.6952 Y8.5182
G01 X16.6160 Y8.5065
G01 X16.5970 Y8.5049
G01 X16.5170 Y8.5010
G01 X16.4288 Y8.5009
G01 X16.4430 Y8.4961
G01 X16.5096 Y8.4713
G01 X16.5210 Y8.4667
G01 X16.5329 Y8.4613
G01 X16.5444 Y8.4553
G01 X16.5612 Y8.4452
G01 X16.5771 Y8.4339
G01 X16.5872 Y8.4257
G01 X16.6016 Y8.4125
G01 X16.6106 Y8.4031
G01 X16.6192 Y8.3932
G01 X16.6268 Y8.3835
G01 X16.6730 Y8.3217
G01 X16.6836 Y8.3056
G01 X16.6901 Y8.2943
G01 X16.6960 Y8.2827
G01 X16.7037 Y8.2648
G01 X16.7101 Y8.2463
G01 X16.7135 Y8.2337
G01 X16.7175 Y8.2146
G01 X16.7201 Y8.1956
G01 X16.7256 Y8.1186
G01 X16.7262 Y8.1062
G01 X16.7260 Y8.0867
G01 X16.7242 Y8.0672
G01 X16.7223 Y8.0543
G01 X16.7181 Y8.0353
G01 X16.7146 Y8.0227
G01 X16.7080 Y8.0043
G01 X16.7029 Y7.9923
G01 X16.6974 Y7.9809
G01 X16.6628 Y7.9173
G01 X18.0403 Y9.2948
G01 X18.0403 Y9.7278
G01 X16.7272 Y11.0409
G01 X12.2695 Y11.0409
G01 X12.2496 Y11.0356
G01 X12.2308 Y11.0321
G01 X12.2118 Y11.0300
G01 X12.1927 Y11.0293
G01 X10.6687 Y11.0293
G01 X10.6495 Y11.0300
G01 X10.6368 Y11.0313
G01 X10.6242 Y11.0331
G01 X10.6055 Y11.0371
G01 X10.5932 Y11.0405
G01 X10.5811 Y11.0445
G01 X10.5692 Y11.0491
G01 X10.5575 Y11.0543
G01 X10.5405 Y11.0631
G01 X10.5296 Y11.0697
G01 X10.5190 Y11.0767
G01 X10.5036 Y11.0885
G01 X10.5116 Y11.0709
G01 X10.5355 Y11.0133
G01 X10.5426 Y10.9941
G01 X10.5480 Y10.9752
G01 X10.5507 Y10.9624
G01 X10.5529 Y10.9494
G01 X10.5548 Y10.9299
G01 X10.5553 Y10.9102
G01 X10.5543 Y10.8906
G01 X10.5527 Y10.8767
G01 X10.5416 Y10.8004
G01 X10.5377 Y10.7815
G01 X10.5343 Y10.7690
G01 X10.5280 Y10.7505
G01 X10.5231 Y10.7384
G01 X10.5175 Y10.7267
G01 X10.5081 Y10.7095
G01 X10.4974 Y10.6932
G01 X10.4857 Y10.6779
G01 X10.4352 Y10.6196
G01 X10.4269 Y10.6104
G01 X10.4129 Y10.5968
G01 X10.3979 Y10.5842
G01 X10.3820 Y10.5729
G01 X10.3710 Y10.5660
G01 X10.3596 Y10.5596
G01 X10.3420 Y10.5512
G01 X10.3299 Y10.5463
G01 X10.3179 Y10.5422
G01 X10.2484 Y10.5217
G00 Z2.0000
G00 X10.6638 Y11.1894
G01 F60.00
G01 Z0.0000
G01 F80.00
G01 X12.1927 Y11.1893
G01 X12.2049 Y11.1901
G01 X12.2170 Y11.1923
G01 X12.2287 Y11.1960
G01 X12.2395 Y11.2009
G01 X16.7934 Y11.2009
G01 X18.2003 Y9.7941
G01 X18.2003 Y9.2286
G01 X15.9094 Y6.9376
G01 X15.8549 Y6.8777
G01 X15.8064 Y6.8128
G01 X15.8010 Y6.8046
G01 X15.7607 Y6.7372
G01 X15.7260 Y6.6640
G01 X15.7233 Y6.6572
G01 X15.6969 Y6.5832
G01 X15.6826 Y6.5267
G01 X15.6766 Y6.5177
G01 X15.6287 Y6.4377
G01 X15.5888 Y6.3535
G01 X15.5859 Y6.3467
G01 X15.5537 Y6.2566
G01 X15.5310 Y6.1662
G01 X15.5294 Y6.1590
G01 X15.5155 Y6.0643
G01 X15.5107 Y5.9663
G01 X15.5108 Y4.1614
G01 X15.5151 Y4.0732
G01 X15.5161 Y4.0634
G01 X15.5299 Y3.9712
G01 X15.5524 Y3.8808
G01 X15.5553 Y3.8714
G01 X15.5868 Y3.7836
G01 X15.6265 Y3.6993
G01 X15.6312 Y3.6906
G01 X15.6792 Y3.6107
G01 X15.7346 Y3.5358
G01 X15.7409 Y3.5282
G01 X15.8036 Y3.4592
G01 X15.8726 Y3.3965
G01 X15.8801 Y3.3903
G01 X15.9511 Y3.3377
G01 X15.9592 Y3.3322
G01 X16.0393 Y3.2844
G01 X16.1280 Y3.2424
G01 X16.2204 Y3.2094
G01 X16.3156 Y3.1855
G01 X16.4126 Y3.1711
G01 X16.5058 Y3.1664
G01 X16.5156 Y3.1664
G01 X16.6038 Y3.1708
G01 X16.6136 Y3.1717
G01 X16.7058 Y3.1855
G01 X16.7962 Y3.2081
G01 X16.8056 Y3.2109
G01 X16.8933 Y3.2424
G01 X16.9821 Y3.2844
G01 X17.0662 Y3.3348
G01 X17.1451 Y3.3933
G01 X17.2178 Y3.4592
G01 X17.2837 Y3.5319
G01 X17.3421 Y3.6107
G01 X17.3926 Y3.6949
G01 X17.4345 Y3.7836
G01 X17.4676 Y3.8760
G01 X17.4915 Y3.9712
G01 X17.5056 Y4.0659
G01 X17.5062 Y4.0732
G01 X17.5107 Y4.1663
G01 X17.5107 Y5.9663
G01 X17.5061 Y6.0619
G01 X17.4976 Y6.1207
G01 X19.6537 Y8.2768
G01 X19.7080 Y8.3368
G01 X19.7549 Y8.3999
G01 X19.7604 Y8.4080
G01 X19.8006 Y8.4755
G01 X19.8343 Y8.5464
G01 X19.8381 Y8.5555
G01 X19.8629 Y8.6248
G01 X19.8657 Y8.6342
G01 X19.8836 Y8.7056
G01 X19.8855 Y8.7153
G01 X19.8969 Y8.7930
G01 X19.9010 Y8.8739
G01 X19.9010 Y10.1463
G01 X19.8972 Y10.2272
G01 X19.8855 Y10.3074
G01 X19.8836 Y10.3170
G01 X19.8644 Y10.3932
G01 X19.8363 Y10.4717
G01 X19.8028 Y10.5428
G01 X19.7982 Y10.5515
G01 X19.7577 Y10.6188
G01 X19.7080 Y10.6858
G01 X19.6520 Y10.7476
G01 X17.7470 Y12.6526
G01 X17.6889 Y12.7055
G01 X17.6813 Y12.7117
G01 X17.6221 Y12.7556
G01 X17.6140 Y12.7610
G01 X17.5465 Y12.8013
G01 X17.4711 Y12.8370
G01 X17.3925 Y12.8651
G01 X17.3164 Y12.8843
G01 X17.3067 Y12.8862
G01 X17.2339 Y12.8970
G01 X17.2241 Y12.8980
G01 X17.1457 Y12.9017
G01 X12.2395 Y12.9017
G01 X12.2287 Y12.9066
G01 X12.2170 Y12.9103
G01 X12.2049 Y12.9126
G01 X12.1927 Y12.9133
G01 X10.6687 Y12.9133
G01 X10.6564 Y12.9126
G01 X10.6444 Y12.9103
G01 X10.6373 Y12.9083
G01 X10.6304 Y12.9057
G01 X10.6215 Y12.9015
G01 X10.6152 Y12.8978
G01 X10.6071 Y12.8921
G01 X10.6015 Y12.8874
G01 X10.5962 Y12.8823
G01 X10.5914 Y12.8768
G01 X10.5869 Y12.8709
G01 X10.5829 Y12.8647
G01 X10.5783 Y12.8561
G01 X10.5754 Y12.8493
G01 X10.5723 Y12.8400
G01 X10.5706 Y12.8328
G01 X10.5694 Y12.8256
G01 X10.5688 Y12.8182
G01 X10.5687 Y11.2893
G01 X10.5689 Y11.2820
G01 X10.5701 Y11.2722
G01 X10.5723 Y11.2626
G01 X10.5754 Y11.2533
G01 X10.5793 Y11.2444
G01 X10.5842 Y11.2358
G01 X10.5898 Y11.2278
G01 X10.5962 Y11.2204
G01 X10.6015 Y11.2152
G01 X10.6091 Y11.2090
G01 X10.6173 Y11.2035
G01 X10.6259 Y11.1989
G01 X10.6350 Y11.1952
G01 X10.6444 Y11.1923
G01 X10.6540 Y11.1904
G01 X10.6638 Y11.1894
G00 Z2.0000
G00 X10.7056 Y13.0733
G01 F60.00
G01 Z0.0000
G01 F80.00
G01 X12.1927 Y13.0733
G01 X12.2118 Y13.0726
G01 X12.2308 Y13.0705
G01 X12.2496 Y13.0670
G01 X12.2695 Y13.0617
G01 X17.1520 Y13.0616
G01 X17.2320 Y13.0578
G01 X17.2447 Y13.0568
G01 X17.2574 Y13.0553
G01 X17.3302 Y13.0445
G01 X17.3428 Y13.0423
G01 X17.3552 Y13.0395
G01 X17.4267 Y13.0216
G01 X17.4390 Y13.0182
G01 X17.4511 Y13.0142
G01 X17.5204 Y12.9894
G01 X17.5323 Y12.9848
G01 X17.5440 Y12.9796
G01 X17.6106 Y12.9481
G01 X17.6220 Y12.9424
G01 X17.6331 Y12.9361
G01 X17.6962 Y12.8982
G01 X17.7070 Y12.8914
G01 X17.7174 Y12.8841
G01 X17.7766 Y12.8402
G01 X17.7866 Y12.8323
G01 X17.7963 Y12.8240
G01 X17.8555 Y12.7702
G01 X19.7651 Y10.8608
G01 X19.7739 Y10.8515
G01 X19.8234 Y10.7970
G01 X19.8317 Y10.7873
G01 X19.8395 Y10.7772
G01 X19.8872 Y10.7129
G01 X19.8976 Y10.6969
G01 X19.9354 Y10.6337
G01 X19.9417 Y10.6226
G01 X19.9475 Y10.6112
G01 X19.9790 Y10.5446
G01 X19.9841 Y10.5330
G01 X19.9887 Y10.5211
G01 X20.0135 Y10.4517
G01 X20.0175 Y10.4396
G01 X20.0209 Y10.4273
G01 X20.0388 Y10.3559
G01 X20.0416 Y10.3434
G01 X20.0438 Y10.3309
G01 X20.0546 Y10.2580
G01 X20.0562 Y10.2453
G01 X20.0571 Y10.2326
G01 X20.0607 Y10.1591
G01 X20.0610 Y10.1463
G01 X20.0610 Y8.8699
G01 X20.0571 Y8.7900
G01 X20.0562 Y8.7773
G01 X20.0546 Y8.7646
G01 X20.0428 Y8.6855
G01 X20.0388 Y8.6667
G01 X20.0193 Y8.5891
G01 X20.0156 Y8.5769
G01 X20.0017 Y8.5379
G01 X20.0108 Y8.5493
G01 X20.0238 Y8.5636
G01 X20.0798 Y8.6179
G01 X20.0889 Y8.6262
G01 X20.0989 Y8.6346
G01 X20.1146 Y8.6462
G01 X20.1256 Y8.6532
G01 X20.1426 Y8.6627
G01 X20.1604 Y8.6709
G01 X20.1725 Y8.6756
G01 X20.1849 Y8.6797
G01 X20.2034 Y8.6846
G01 X20.2791 Y8.6998
G01 X20.2913 Y8.7020
G01 X20.3107 Y8.7042
G01 X20.3237 Y8.7048
G01 X20.3367 Y8.7048
G01 X20.3562 Y8.7036
G01 X20.3756 Y8.7009
G01 X20.3947 Y8.6968
G01 X20.4134 Y8.6912
G01 X20.4250 Y8.6870
G01 X20.4969 Y8.6587
G01 X20.5143 Y8.6506
G01 X20.5314 Y8.6411
G01 X20.5477 Y8.6303
G01 X20.5631 Y8.6184
G01 X20.5776 Y8.6053
G01 X20.5867 Y8.5960
G01 X20.5953 Y8.5862
G01 X20.6033 Y8.5763
G01 X20.6480 Y8.5146
G01 X20.6278 Y8.5709
G01 X20.6238 Y8.5830
G01 X20.6204 Y8.5953
G01 X20.6025 Y8.6667
G01 X20.5997 Y8.6792
G01 X20.5975 Y8.6918
G01 X20.5867 Y8.7646
G01 X20.5852 Y8.7773
G01 X20.5842 Y8.7900
G01 X20.5806 Y8.8636
G01 X20.5803 Y8.8763
G01 X20.5803 Y10.3228
G01 X17.3222 Y13.5809
G01 X16.4941 Y13.5809
G01 X16.4912 Y13.5695
G01 X16.4875 Y13.5573
G01 X16.4809 Y13.5393
G01 X16.4729 Y13.5219
G01 X16.4637 Y13.5051
G01 X16.4532 Y13.4891
G01 X16.4416 Y13.4739
G01 X16.4290 Y13.4595
G01 X16.4199 Y13.4505
G01 X16.4105 Y13.4419
G01 X16.3955 Y13.4300
G01 X16.3851 Y13.4226
G01 X16.3743 Y13.4158
G01 X16.3576 Y13.4066
G01 X16.3402 Y13.3986
G01 X16.3222 Y13.3919
G01 X16.3038 Y13.3866
G01 X16.2914 Y13.3838
G01 X16.2788 Y13.3816
G01 X16.2598 Y13.3795
G01 X16.2407 Y13.3788
G01 X14.2343 Y13.3789
G01 X14.2152 Y13.3801
G01 X14.1962 Y13.3826
G01 X14.1775 Y13.3866
G01 X14.1652 Y13.3900
G01 X14.1531 Y13.3940
G01 X14.1412 Y13.3986
G01 X14.1295 Y13.4038
G01 X14.1125 Y13.4126
G01 X14.0962 Y13.4226
G01 X14.0858 Y13.4300
G01 X14.0757 Y13.4378
G01 X14.0614 Y13.4505
G01 X14.0524 Y13.4595
G01 X14.0438 Y13.4690
G01 X14.0318 Y13.4839
G01 X14.0210 Y13.4997
G01 X14.0114 Y13.5163
G01 X14.0056 Y13.5277
G01 X14.0005 Y13.5393
G01 X13.9938 Y13.5573
G01 X13.9901 Y13.5695
G01 X13.9872 Y13.5809
G01 X11.5782 Y13.5809
G01 X11.5372 Y13.5749
G01 X11.5245 Y13.5737
G01 X11.4434 Y13.5696
G01 X11.4307 Y13.5693
G01 X11.4179 Y13.5696
G01 X11.3432 Y13.5733
G01 X11.3305 Y13.5742
G01 X11.3178 Y13.5758
G01 X11.2439 Y13.5868
G01 X11.2313 Y13.5890
G01 X11.2188 Y13.5917
G01 X11.1401 Y13.6115
G01 X11.1219 Y13.6173
G01 X11.0515 Y13.6425
G01 X11.0337 Y13.6496
G01 X10.9546 Y13.6871
G01 X10.9433 Y13.6931
G01 X10.9083 Y13.7139
G01 X10.9216 Y13.6997
G01 X10.9339 Y13.6841
G01 X10.9451 Y13.6676
G01 X10.9549 Y13.6503
G01 X10.9608 Y13.6383
G01 X10.9902 Y13.5738
G01 X10.9951 Y13.5624
G01 X11.0017 Y13.5440
G01 X11.0053 Y13.5315
G01 X11.0083 Y13.5188
G01 X11.0115 Y13.4995
G01 X11.0134 Y13.4801
G01 X11.0137 Y13.4605
G01 X11.0126 Y13.4410
G01 X11.0111 Y13.4287
G01 X11.0000 Y13.3524
G01 X10.9962 Y13.3335
G01 X10.9908 Y13.3148
G01 X10.9840 Y13.2964
G01 X10.9759 Y13.2787
G01 X10.9698 Y13.2672
G01 X10.9631 Y13.2560
G01 X10.9520 Y13.2399
G01 X10.9401 Y13.2252
G01 X10.8895 Y13.1669
G01 X10.8761 Y13.1532
G01 X10.8664 Y13.1445
G01 X10.8511 Y13.1323
G01 X10.8350 Y13.1213
G01 X10.8180 Y13.1116
G01 X10.8004 Y13.1032
G01 X10.7883 Y13.0983
G01 X10.7763 Y13.0942
G01 X10.7056 Y13.0733
G00 Z2.0000
G00 X12.7326 Y15.6017
G01 F60.00
G01 Z0.0000
G01 F80.00
G01 X12.7012 Y15.6086
G01 X12.6887 Y15.6120
G01 X12.6763 Y15.6160
G01 X12.6642 Y15.6206
G01 X12.6523 Y15.6259
G01 X12.6407 Y15.6317
G01 X12.6294 Y15.6381
G01 X12.6130 Y15.6487
G01 X12.5975 Y15.6605
G01 X12.5389 Y15.7112
G01 X12.5251 Y15.7241
G01 X12.5118 Y15.7384
G01 X12.4997 Y15.7537
G01 X12.4922 Y15.7644
G01 X12.4853 Y15.7754
G01 X12.4760 Y15.7926
G01 X12.4680 Y15.8105
G01 X12.4615 Y15.8285
G01 X12.4410 Y15.8980
G01 X12.4410 Y15.6017
G01 X12.7326 Y15.6017
G00 Z2.0000
G00 X14.0217 Y15.6840
G01 F60.00
G01 Z0.0000
G01 F80.00
G01 X14.0027 Y15.6674
G01 X13.9873 Y15.6558
G01 X13.9710 Y15.6455
G01 X13.9540 Y15.6363
G01 X13.9364 Y15.6285
G01 X13.9186 Y15.6221
G01 X13.8493 Y15.6017
G01 X13.9872 Y15.6017
G01 X13.9901 Y15.6132
G01 X13.9938 Y15.6254
G01 X14.0005 Y15.6433
G01 X14.0056 Y15.6550
G01 X14.0114 Y15.6664
G01 X14.0217 Y15.6840
G00 Z2.0000
G00 X16.6207 Y15.6017
G01 F60.00
G01 Z0.0000
G01 F80.00
G01 X16.6017 Y15.6058
G01 X16.5832 Y15.6112
G01 X16.5652 Y15.6180
G01 X16.5477 Y15.6262
G01 X16.5364 Y15.6323
G01 X16.5200 Y15.6425
G01 X16.4824 Y15.6703
G01 X16.4712 Y15.6774
G01 X16.4576 Y15.6871
G01 X16.4637 Y15.6775
G01 X16.4700 Y15.6664
G01 X16.4757 Y15.6550
G01 X16.4809 Y15.6433
G01 X16.4875 Y15.6254
G01 X16.4912 Y15.6132
G01 X16.4941 Y15.6017
G01 X16.6207 Y15.6017
G00 Z2.0000
G00 X16.4798 Y19.4492
G01 F60.00
G01 Z0.0000
G01 F80.00
G01 X16.4890 Y19.4672
G01 X16.5188 Y19.5205
G01 X16.4855 Y19.4872
G01 X16.4798 Y19.4492
G00 Z2.0000
G00 X16.8864 Y19.8882
G01 F60.00
G01 Z0.0000
G01 F80.00
G01 X16.8955 Y19.8932
G01 X16.9070 Y19.8988
G01 X16.9187 Y19.9039
G01 X16.9306 Y19.9084
G01 X16.9428 Y19.9123
G01 X17.0063 Y19.9309
G01 X16.9292 Y19.9309
G01 X16.8864 Y19.8882
G00 Z2.0000
G00 X15.0848 Y20.7181
G01 F60.00
G01 Z0.0000
G01 F80.00
G01 X14.9878 Y20.7036
G01 X14.8876 Y20.6785
G01 X14.7904 Y20.6437
G01 X14.6970 Y20.5995
G01 X14.6084 Y20.5464
G01 X14.5255 Y20.4849
G01 X14.4489 Y20.4155
G01 X14.3796 Y20.3390
G01 X14.3180 Y20.2561
G01 X14.2649 Y20.1675
G01 X14.2208 Y20.0741
G01 X14.1860 Y19.9768
G01 X14.1609 Y19.8766
G01 X14.1457 Y19.7745
G01 X14.1407 Y19.6713
G01 X14.1457 Y19.5682
G01 X14.1609 Y19.4660
G01 X14.1860 Y19.3658
G01 X14.2208 Y19.2685
G01 X14.2649 Y19.1752
G01 X14.3180 Y19.0866
G01 X14.3796 Y19.0036
G01 X14.4489 Y18.9271
G01 X14.5255 Y18.8577
G01 X14.6084 Y18.7962
G01 X14.6970 Y18.7431
G01 X14.7904 Y18.6989
G01 X14.8876 Y18.6641
G01 X14.9878 Y18.6390
G01 X15.0876 Y18.6242
G01 X15.0949 Y18.6235
G01 X15.1907 Y18.6188
G01 X15.2906 Y18.6188
G01 X15.3913 Y18.6239
G01 X15.4935 Y18.6390
G01 X15.5937 Y18.6641
G01 X15.6909 Y18.6989
G01 X15.7843 Y18.7431
G01 X15.8729 Y18.7962
G01 X15.9559 Y18.8577
G01 X16.0306 Y18.9254
G01 X16.0358 Y18.9306
G01 X16.1018 Y19.0036
G01 X16.1605 Y19.0826
G01 X16.1659 Y19.0907
G01 X16.2140 Y19.1709
G01 X16.2186 Y19.1796
G01 X16.2605 Y19.2685
G01 X16.2953 Y19.3658
G01 X16.3204 Y19.4660
G01 X16.3350 Y19.5630
G01 X16.8629 Y20.0909
G01 X21.4364 Y20.0909
G01 X21.4893 Y20.0594
G01 X21.5757 Y20.0184
G01 X21.5826 Y20.0157
G01 X21.6680 Y19.9851
G01 X21.6751 Y19.9831
G01 X21.7656 Y19.9605
G01 X21.8578 Y19.9467
G01 X21.8675 Y19.9458
G01 X21.9607 Y19.9413
G01 X23.7607 Y19.9413
G01 X23.8587 Y19.9461
G01 X23.9558 Y19.9605
G01 X24.0509 Y19.9844
G01 X24.1433 Y20.0174
G01 X24.2321 Y20.0594
G01 X24.3162 Y20.1098
G01 X24.3951 Y20.1683
G01 X24.4678 Y20.2342
G01 X24.5305 Y20.3032
G01 X24.5367 Y20.3108
G01 X24.5893 Y20.3817
G01 X24.5948 Y20.3899
G01 X24.6426 Y20.4699
G01 X24.6826 Y20.5541
G01 X24.6863 Y20.5632
G01 X24.7176 Y20.6510
G01 X24.7415 Y20.7462
G01 X24.7558 Y20.8433
G01 X24.7605 Y20.9364
G01 X24.7606 Y20.9438
G01 X24.7558 Y21.0393
G01 X24.7423 Y21.1316
G01 X24.7404 Y21.1412
G01 X24.7176 Y21.2316
G01 X24.6845 Y21.3240
G01 X24.6448 Y21.4083
G01 X24.6402 Y21.4170
G01 X24.5948 Y21.4927
G01 X24.5893 Y21.5009
G01 X24.5337 Y21.5757
G01 X24.4678 Y21.6484
G01 X24.3951 Y21.7143
G01 X24.3202 Y21.7700
G01 X24.3121 Y21.7754
G01 X24.2363 Y21.8208
G01 X24.2277 Y21.8254
G01 X24.1433 Y21.8652
G01 X24.0556 Y21.8967
G01 X24.0462 Y21.8996
G01 X23.9605 Y21.9210
G01 X23.9509 Y21.9229
G01 X23.8587 Y21.9365
G01 X23.7631 Y21.9413
G01 X21.9582 Y21.9413
G01 X21.8626 Y21.9365
G01 X21.7704 Y21.9229
G01 X21.7608 Y21.9210
G01 X21.6727 Y21.8989
G01 X21.6657 Y21.8967
G01 X21.5826 Y21.8670
G01 X21.5757 Y21.8642
G01 X21.4893 Y21.8232
G01 X21.4364 Y21.7917
G01 X16.5107 Y21.7917
G01 X16.4273 Y21.7876
G01 X16.3472 Y21.7758
G01 X16.3400 Y21.7743
G01 X16.2638 Y21.7551
G01 X16.1898 Y21.7287
G01 X16.1808 Y21.7250
G01 X16.1098 Y21.6913
G01 X16.0424 Y21.6510
G01 X16.0342 Y21.6456
G01 X15.9712 Y21.5987
G01 X15.9094 Y21.5426
G01 X15.0848 Y20.7181
G00 Z2.0000
G00 X15.0374 Y20.8969
G01 F60.00
G01 Z0.0000
G01 F80.00
G01 X14.9932 Y20.8712
G01 X14.9809 Y20.8644
G01 X15.0091 Y20.8686
G01 X15.0374 Y20.8969
G00 Z2.0000
G00 X13.8308 Y19.7666
G01 F60.00
G01 Z0.0000
G01 F80.00
G01 X13.8336 Y19.5428
G01 X13.8728 Y19.3225
G01 X13.9475 Y19.1115
G01 X14.0557 Y18.9156
G01 X14.1944 Y18.7399
G01 X14.3599 Y18.5893
G01 X14.5478 Y18.4677
G01 X14.6318 Y18.4312
G01 X14.7531 Y18.3785
G01 X14.9701 Y18.3240
G01 X15.1364 Y18.3103
G01 X15.3614 Y18.3103
G01 X15.5441 Y18.3298
G01 X15.7597 Y18.3896
G01 X15.9627 Y18.4839
G01 X16.1476 Y18.6100
G01 X16.3094 Y18.7646
G01 X16.4438 Y18.9436
G01 X16.5471 Y19.1421
G01 X16.6168 Y19.3552
G01 X16.6192 Y19.3658
G01 X16.6223 Y19.3755
G01 X16.6275 Y19.3871
G01 X16.6621 Y19.4490
G01 X16.6658 Y19.4552
G01 X16.6704 Y19.4616
G01 X16.6787 Y19.4710
G01 X16.9243 Y19.7166
G01 X16.9302 Y19.7221
G01 X16.9533 Y19.7407
G01 X16.9612 Y19.7465
G01 X16.9675 Y19.7503
G01 X16.9763 Y19.7546
G01 X16.9832 Y19.7573
G01 X17.0560 Y19.7788
G01 X17.0676 Y19.7814
G01 X17.0746 Y19.7824
G01 X17.0841 Y19.7828
G01 X21.3006 Y19.7828
G01 X21.3085 Y19.7823
G01 X21.3189 Y19.7806
G01 X21.3707 Y19.7695
G01 X21.3834 Y19.7658
G01 X21.3908 Y19.7629
G01 X21.5245 Y19.7026
G01 X21.7394 Y19.6469
G01 X21.9049 Y19.6328
G01 X23.8663 Y19.6328
G01 X23.8824 Y19.6336
G01 X24.1028 Y19.6734
G01 X24.3115 Y19.7492
G01 X24.5045 Y19.8590
G01 X24.6762 Y19.9998
G01 X24.8217 Y20.1676
G01 X24.9369 Y20.3574
G01 X25.0185 Y20.5639
G01 X25.0641 Y20.7813
G01 X25.0724 Y21.0032
G01 X25.0433 Y21.2233
G01 X24.9774 Y21.4354
G01 X24.8768 Y21.6333
G01 X24.7442 Y21.8115
G01 X24.5835 Y21.9648
G01 X24.3993 Y22.0888
G01 X24.1969 Y22.1800
G01 X23.9819 Y22.2358
G01 X23.8164 Y22.2498
G01 X21.8551 Y22.2498
G01 X21.8389 Y22.2491
G01 X21.6186 Y22.2092
G01 X21.4098 Y22.1334
G01 X21.3967 Y22.1263
G01 X21.3853 Y22.1216
G01 X21.3144 Y22.1026
G01 X21.3051 Y22.1008
G01 X21.2931 Y22.0998
G01 X16.5269 Y22.0998
G01 X16.4255 Y22.1014
G01 X16.4016 Y22.0985
G01 X16.3785 Y22.0971
G01 X16.3021 Y22.0813
G01 X16.2214 Y22.0680
G01 X16.2064 Y22.0629
G01 X16.1866 Y22.0574
G01 X16.1745 Y22.0549
G01 X16.1035 Y22.0263
G01 X16.0265 Y21.9989
G01 X16.0126 Y21.9913
G01 X15.9941 Y21.9824
G01 X15.9826 Y21.9777
G01 X15.9178 Y21.9371
G01 X15.8468 Y21.8965
G01 X15.8345 Y21.8865
G01 X15.8179 Y21.8745
G01 X15.8074 Y21.8678
G01 X15.7516 Y21.8170
G01 X15.7286 Y21.7977
G01 X15.7090 Y21.7783
G01 X15.6544 Y21.7287
G01 X15.6443 Y21.7155
G01 X15.6269 Y21.6959
G01 X14.9884 Y21.0574
G01 X14.9777 Y21.0481
G01 X14.9680 Y21.0417
G01 X14.9126 Y21.0094
G01 X14.9000 Y21.0032
G01 X14.8889 Y20.9994
G01 X14.7216 Y20.9530
G01 X14.5186 Y20.8588
G01 X14.3337 Y20.7326
G01 X14.1719 Y20.5780
G01 X14.0375 Y20.3990
G01 X13.9342 Y20.2005
G01 X13.8647 Y19.9878
G01 X13.8308 Y19.7666
G00 Z2.0000
G00 X10.1287 Y21.2009
G01 F60.00
G01 Z0.0000
G01 F80.00
G01 X10.1601 Y21.1940
G01 X10.1726 Y21.1906
G01 X10.1850 Y21.1866
G01 X10.1971 Y21.1820
G01 X10.2090 Y21.1768
G01 X10.2207 Y21.1709
G01 X10.2320 Y21.1646
G01 X10.2483 Y21.1539
G01 X10.2638 Y21.1421
G01 X10.3224 Y21.0914
G01 X10.3362 Y21.0786
G01 X10.3452 Y21.0691
G01 X10.3537 Y21.0592
G01 X10.3655 Y21.0436
G01 X10.3760 Y21.0272
G01 X10.3853 Y21.0100
G01 X10.3933 Y20.9922
G01 X10.3998 Y20.9741
G01 X10.4203 Y20.9046
G01 X10.4203 Y21.2009
G01 X10.1287 Y21.2009
G00 Z2.0000
G00 X3.4141 Y21.1692
G01 F60.00
G01 Z0.0000
G01 F80.00
G01 X3.4263 Y21.1745
G01 X3.4435 Y21.1806
G01 X3.5125 Y21.2009
G01 X3.4491 Y21.2009
G01 X3.4141 Y21.1692
G00 Z2.0000
G00 X3.3873 Y21.3609
G01 F60.00
G01 Z0.0000
G01 F80.00
G01 X6.2150 Y21.3609
G01 X6.2686 Y21.3533
G01 X6.3507 Y21.3493
G01 X6.4327 Y21.3533
G01 X6.4864 Y21.3609
G01 X10.5803 Y21.3609
G01 X10.5803 Y14.7270
G01 X10.5726 Y14.6734
G01 X10.5688 Y14.5962
G01 X10.5687 Y14.5889
G01 X10.5728 Y14.5068
G01 X10.5844 Y14.4280
G01 X10.5863 Y14.4184
G01 X10.6045 Y14.3458
G01 X10.6073 Y14.3364
G01 X10.6343 Y14.2614
G01 X10.6704 Y14.1850
G01 X10.7139 Y14.1124
G01 X10.7628 Y14.0464
G01 X10.7675 Y14.0408
G01 X10.8211 Y13.9818
G01 X10.8838 Y13.9250
G01 X10.9518 Y13.8746
G01 X11.0243 Y13.8311
G01 X11.1008 Y13.7949
G01 X11.1804 Y13.7664
G01 X11.2625 Y13.7459
G01 X11.3413 Y13.7341
G01 X11.3511 Y13.7331
G01 X11.4331 Y13.7293
G01 X11.5152 Y13.7335
G01 X11.5664 Y13.7409
G01 X14.1407 Y13.7409
G01 X14.1407 Y13.6388
G01 X14.1409 Y13.6315
G01 X14.1421 Y13.6217
G01 X14.1443 Y13.6121
G01 X14.1474 Y13.6028
G01 X14.1503 Y13.5961
G01 X14.1562 Y13.5853
G01 X14.1603 Y13.5792
G01 X14.1649 Y13.5735
G01 X14.1735 Y13.5647
G01 X14.1791 Y13.5600
G01 X14.1851 Y13.5557
G01 X14.1914 Y13.5518
G01 X14.1979 Y13.5484
G01 X14.2093 Y13.5439
G01 X14.2164 Y13.5418
G01 X14.2236 Y13.5403
G01 X14.2358 Y13.5389
G01 X16.2407 Y13.5388
G01 X16.2480 Y13.5391
G01 X16.2553 Y13.5399
G01 X16.2626 Y13.5412
G01 X16.2744 Y13.5447
G01 X16.2856 Y13.5495
G01 X16.2962 Y13.5557
G01 X16.3060 Y13.5631
G01 X16.3114 Y13.5681
G01 X16.3164 Y13.5735
G01 X16.3238 Y13.5833
G01 X16.3277 Y13.5895
G01 X16.3311 Y13.5961
G01 X16.3348 Y13.6051
G01 X16.3370 Y13.6121
G01 X16.3392 Y13.6217
G01 X16.3404 Y13.6315
G01 X16.3407 Y13.6388
G01 X16.3407 Y13.7409
G01 X17.3884 Y13.7409
G01 X20.7403 Y10.3891
G01 X20.7403 Y8.8763
G01 X20.7440 Y8.7979
G01 X20.7450 Y8.7881
G01 X20.7566 Y8.7104
G01 X20.7769 Y8.6295
G01 X20.8050 Y8.5509
G01 X20.8396 Y8.4776
G01 X20.8810 Y8.4080
G01 X20.8864 Y8.3999
G01 X20.9333 Y8.3368
G01 X20.9876 Y8.2768
G01 X22.6603 Y6.6041
G01 X22.6603 Y6.4906
G01 X22.6287 Y6.4377
G01 X22.5878 Y6.3513
G01 X22.5850 Y6.3444
G01 X22.5545 Y6.2589
G01 X22.5524 Y6.2519
G01 X22.5299 Y6.1614
G01 X22.5161 Y6.0692
G01 X22.5151 Y6.0594
G01 X22.5107 Y5.9663
G01 X22.5107 Y4.1663
G01 X22.5151 Y4.0732
G01 X22.5161 Y4.0634
G01 X22.5299 Y3.9712
G01 X22.5537 Y3.8760
G01 X22.5850 Y3.7882
G01 X22.5888 Y3.7791
G01 X22.6287 Y3.6949
G01 X22.6792 Y3.6107
G01 X22.7377 Y3.5319
G01 X22.8002 Y3.4628
G01 X22.8071 Y3.4558
G01 X22.8763 Y3.3933
G01 X22.9511 Y3.3377
G01 X22.9592 Y3.3322
G01 X23.0350 Y3.2868
G01 X23.0437 Y3.2822
G01 X23.1280 Y3.2424
G01 X23.2204 Y3.2094
G01 X23.3156 Y3.1855
G01 X23.4078 Y3.1717
G01 X23.4175 Y3.1708
G01 X23.5058 Y3.1664
G01 X23.5156 Y3.1664
G01 X23.6087 Y3.1711
G01 X23.7009 Y3.1847
G01 X23.7105 Y3.1866
G01 X23.8009 Y3.2094
G01 X23.8933 Y3.2424
G01 X23.9821 Y3.2844
G01 X24.0621 Y3.3322
G01 X24.0702 Y3.3377
G01 X24.1451 Y3.3933
G01 X24.2142 Y3.4558
G01 X24.2212 Y3.4628
G01 X24.2821 Y3.5300
G01 X24.2867 Y3.5358
G01 X24.3421 Y3.6107
G01 X24.3902 Y3.6906
G01 X24.3948 Y3.6993
G01 X24.4326 Y3.7791
G01 X24.4363 Y3.7882
G01 X24.4676 Y3.8760
G01 X24.4915 Y3.9712
G01 X24.5058 Y4.0683
G01 X24.5107 Y4.1663
G01 X24.5107 Y5.9663
G01 X24.5062 Y6.0594
G01 X24.5052 Y6.0692
G01 X24.4915 Y6.1614
G01 X24.4689 Y6.2519
G01 X24.4669 Y6.2589
G01 X24.4363 Y6.3444
G01 X24.4336 Y6.3513
G01 X24.3926 Y6.4377
G01 X24.3610 Y6.4906
G01 X24.3610 Y6.9563
G01 X24.3573 Y7.0348
G01 X24.3563 Y7.0445
G01 X24.3447 Y7.1222
G01 X24.3257 Y7.1984
G01 X24.3229 Y7.2078
G01 X24.2963 Y7.2817
G01 X24.2628 Y7.3528
G01 X24.2582 Y7.3615
G01 X24.2177 Y7.4288
G01 X24.1710 Y7.4919
G01 X24.1648 Y7.4995
G01 X24.1154 Y7.5541
G01 X22.4410 Y9.2286
G01 X22.4410 Y10.7413
G01 X22.4373 Y10.8198
G01 X22.4363 Y10.8295
G01 X22.4247 Y10.9072
G01 X22.4044 Y10.9882
G01 X22.3763 Y11.0667
G01 X22.3418 Y11.1400
G01 X22.3004 Y11.2096
G01 X22.2949 Y11.2178
G01 X22.2480 Y11.2808
G01 X22.1920 Y11.3426
G01 X18.3420 Y15.1926
G01 X18.2801 Y15.2487
G01 X18.2171 Y15.2956
G01 X18.2090 Y15.3010
G01 X18.1458 Y15.3389
G01 X18.1371 Y15.3435
G01 X18.0661 Y15.3770
G01 X17.9875 Y15.4051
G01 X17.9066 Y15.4254
G01 X17.8265 Y15.4373
G01 X17.8191 Y15.4380
G01 X17.7407 Y15.4417
G01 X16.3407 Y15.4417
G01 X16.3407 Y15.5438
G01 X16.3404 Y15.5512
G01 X16.3392 Y15.5609
G01 X16.3370 Y15.5705
G01 X16.3348 Y15.5775
G01 X16.3311 Y15.5866
G01 X16.3277 Y15.5931
G01 X16.3238 Y15.5994
G01 X16.3164 Y15.6091
G01 X16.3114 Y15.6145
G01 X16.3060 Y15.6195
G01 X16.2962 Y15.6270
G01 X16.2856 Y15.6331
G01 X16.2789 Y15.6362
G01 X16.2720 Y15.6388
G01 X16.2650 Y15.6408
G01 X16.2578 Y15.6423
G01 X16.2456 Y15.6437
G01 X14.2358 Y15.6437
G01 X14.2284 Y15.6431
G01 X14.2212 Y15.6419
G01 X14.2093 Y15.6388
G01 X14.1979 Y15.6342
G01 X14.1914 Y15.6308
G01 X14.1851 Y15.6270
G01 X14.1791 Y15.6226
G01 X14.1735 Y15.6179
G01 X14.1649 Y15.6091
G01 X14.1603 Y15.6034
G01 X14.1562 Y15.5973
G01 X14.1503 Y15.5866
G01 X14.1474 Y15.5798
G01 X14.1443 Y15.5705
G01 X14.1421 Y15.5609
G01 X14.1409 Y15.5512
G01 X14.1407 Y15.5438
G01 X14.1407 Y15.4417
G01 X12.2810 Y15.4417
G01 X12.2810 Y22.0756
G01 X12.2887 Y22.1293
G01 X12.2925 Y22.2064
G01 X12.2925 Y22.2162
G01 X12.2885 Y22.2958
G01 X12.2769 Y22.3746
G01 X12.2750 Y22.3843
G01 X12.2569 Y22.4568
G01 X12.2540 Y22.4662
G01 X12.2270 Y22.5412
G01 X12.1931 Y22.6133
G01 X12.1885 Y22.6219
G01 X12.1474 Y22.6902
G01 X12.0970 Y22.7582
G01 X12.0402 Y22.8208
G01 X11.9794 Y22.8761
G01 X11.9736 Y22.8807
G01 X11.9096 Y22.9280
G01 X11.8413 Y22.9691
G01 X11.8326 Y22.9737
G01 X11.7650 Y23.0057
G01 X11.7560 Y23.0095
G01 X11.6809 Y23.0362
G01 X11.5988 Y23.0568
G01 X11.5152 Y23.0692
G01 X11.4331 Y23.0733
G01 X11.4258 Y23.0732
G01 X11.3486 Y23.0694
G01 X11.2950 Y23.0617
G01 X6.4864 Y23.0617
G01 X6.4327 Y23.0694
G01 X6.3507 Y23.0733
G01 X6.2686 Y23.0694
G01 X6.2150 Y23.0617
G01 X3.3873 Y23.0617
G01 X3.3019 Y23.1389
G01 X3.2073 Y23.2091
G01 X3.1063 Y23.2696
G01 X2.9999 Y23.3200
G01 X2.8890 Y23.3596
G01 X2.7748 Y23.3883
G01 X2.6583 Y23.4055
G01 X2.5431 Y23.4113
G01 X2.5358 Y23.4112
G01 X2.4230 Y23.4055
G01 X2.3066 Y23.3883
G01 X2.1923 Y23.3596
G01 X2.0814 Y23.3200
G01 X1.9750 Y23.2696
G01 X1.8740 Y23.2091
G01 X1.7794 Y23.1389
G01 X1.6921 Y23.0598
G01 X1.6131 Y22.9726
G01 X1.5429 Y22.8780
G01 X1.4824 Y22.7770
G01 X1.4320 Y22.6705
G01 X1.3923 Y22.5597
G01 X1.3637 Y22.4454
G01 X1.3464 Y22.3289
G01 X1.3407 Y22.2113
G01 X1.3464 Y22.0937
G01 X1.3637 Y21.9772
G01 X1.3923 Y21.8630
G01 X1.4320 Y21.7521
G01 X1.4824 Y21.6456
G01 X1.5429 Y21.5446
G01 X1.6131 Y21.4500
G01 X1.6921 Y21.3628
G01 X1.7794 Y21.2837
G01 X1.8740 Y21.2136
G01 X1.9750 Y21.1530
G01 X2.0814 Y21.1027
G01 X2.1923 Y21.0630
G01 X2.3066 Y21.0344
G01 X2.4230 Y21.0171
G01 X2.5407 Y21.0113
G01 X2.6583 Y21.0171
G01 X2.7748 Y21.0344
G01 X2.8890 Y21.0630
G01 X2.9999 Y21.1027
G01 X3.1063 Y21.1530
G01 X3.2073 Y21.2136
G01 X3.3019 Y21.2837
G01 X3.3873 Y21.3609
G00 Z2.0000
G00 X3.4995 Y23.2217
G01 F60.00
G01 Z0.0000
G01 F80.00
G01 X3.4834 Y23.2270
G01 X3.4723 Y23.2314
G01 X3.4045 Y23.2617
G01 X3.4491 Y23.2217
G01 X3.4995 Y23.2217
G00 Z2.0000
G00 X1.0275 Y22.2113
G01 F60.00
G01 Z0.0000
G01 F80.00
G01 X1.0461 Y21.9746
G01 X1.1016 Y21.7437
G01 X1.1924 Y21.5244
G01 X1.3165 Y21.3219
G01 X1.4707 Y21.1413
G01 X1.6512 Y20.9871
G01 X1.8537 Y20.8631
G01 X2.0731 Y20.7722
G01 X2.3040 Y20.7168
G01 X2.5407 Y20.6982
G01 X2.7774 Y20.7168
G01 X3.0083 Y20.7722
G01 X3.2276 Y20.8631
G01 X3.4301 Y20.9871
G01 X3.4462 Y21.0008
G01 X3.4626 Y21.0131
G01 X3.4703 Y21.0182
G01 X3.4787 Y21.0228
G01 X3.4853 Y21.0258
G01 X3.4919 Y21.0281
G01 X3.5645 Y21.0494
G01 X3.5761 Y21.0518
G01 X3.5880 Y21.0528
G01 X6.1525 Y21.0528
G01 X6.1722 Y21.0520
G01 X6.3507 Y21.0363
G01 X6.5291 Y21.0520
G01 X6.5488 Y21.0528
G01 X10.0488 Y21.0528
G01 X10.0569 Y21.0522
G01 X10.0648 Y21.0511
G01 X10.1222 Y21.0386
G01 X10.1341 Y21.0349
G01 X10.1433 Y21.0309
G01 X10.1520 Y21.0259
G01 X10.1621 Y21.0186
G01 X10.2212 Y20.9673
G01 X10.2281 Y20.9600
G01 X10.2342 Y20.9521
G01 X10.2407 Y20.9414
G01 X10.2449 Y20.9323
G01 X10.2481 Y20.9231
G01 X10.2681 Y20.8550
G01 X10.2704 Y20.8457
G01 X10.2715 Y20.8387
G01 X10.2722 Y20.8268
G01 X10.2722 Y14.7895
G01 X10.2713 Y14.7698
G01 X10.2557 Y14.5913
G01 X10.2735 Y14.3873
G01 X10.3266 Y14.1895
G01 X10.4131 Y14.0038
G01 X10.5306 Y13.8361
G01 X10.6754 Y13.6912
G01 X10.7620 Y13.6305
G01 X10.7683 Y13.6253
G01 X10.7931 Y13.6029
G01 X10.8018 Y13.5935
G01 X10.8092 Y13.5831
G01 X10.8141 Y13.5742
G01 X10.8466 Y13.5029
G01 X10.8491 Y13.4958
G01 X10.8516 Y13.4861
G01 X10.8532 Y13.4763
G01 X10.8537 Y13.4662
G01 X10.8530 Y13.4539
G01 X10.8423 Y13.3789
G01 X10.8395 Y13.3668
G01 X10.8351 Y13.3551
G01 X10.8294 Y13.3440
G01 X10.8222 Y13.3337
G01 X10.7727 Y13.2763
G01 X10.7660 Y13.2693
G01 X10.7584 Y13.2627
G01 X10.7480 Y13.2557
G01 X10.7391 Y13.2511
G01 X10.7276 Y13.2466
G01 X10.6572 Y13.2259
G01 X10.6480 Y13.2236
G01 X10.6385 Y13.2223
G01 X10.6259 Y13.2218
G01 X10.5817 Y13.2170
G01 X10.4705 Y13.1753
G01 X10.3768 Y13.1051
G01 X10.3067 Y13.0115
G01 X10.2650 Y12.9003
G01 X10.2602 Y12.8560
G01 X10.2602 Y11.2466
G01 X10.2650 Y11.2023
G01 X10.3067 Y11.0911
G01 X10.3527 Y11.0297
G01 X10.3577 Y11.0219
G01 X10.3611 Y11.0156
G01 X10.3896 Y10.9470
G01 X10.3919 Y10.9398
G01 X10.3936 Y10.9324
G01 X10.3949 Y10.9225
G01 X10.3953 Y10.9149
G01 X10.3951 Y10.9074
G01 X10.3943 Y10.8995
G01 X10.3838 Y10.8269
G01 X10.3823 Y10.8197
G01 X10.3803 Y10.8124
G01 X10.3757 Y10.8008
G01 X10.3696 Y10.7898
G01 X10.3623 Y10.7798
G01 X10.3127 Y10.7226
G01 X10.3076 Y10.7173
G01 X10.3019 Y10.7123
G01 X10.2938 Y10.7064
G01 X10.2874 Y10.7025
G01 X10.2807 Y10.6991
G01 X10.2714 Y10.6953
G01 X10.1965 Y10.6732
G01 X10.1848 Y10.6708
G01 X10.1754 Y10.6699
G01 X9.5419 Y10.6698
G01 X9.4405 Y10.6714
G01 X9.4166 Y10.6685
G01 X9.3935 Y10.6671
G01 X9.3171 Y10.6513
G01 X9.2364 Y10.6380
G01 X9.2214 Y10.6329
G01 X9.2016 Y10.6274
G01 X9.1895 Y10.6249
G01 X9.1185 Y10.5963
G01 X9.0415 Y10.5689
G01 X9.0276 Y10.5613
G01 X9.0091 Y10.5524
G01 X8.9976 Y10.5477
G01 X8.9283 Y10.5044
G01 X8.8618 Y10.4665
G01 X8.8495 Y10.4565
G01 X8.8329 Y10.4445
G01 X8.8224 Y10.4378
G01 X8.7666 Y10.3870
G01 X8.7436 Y10.3677
G01 X8.7240 Y10.3483
G01 X8.6694 Y10.2986
G01 X8.6593 Y10.2855
G01 X8.6418 Y10.2659
G01 X6.9570 Y8.5810
G01 X6.9511 Y8.5756
G01 X6.9281 Y8.5570
G01 X6.9181 Y8.5499
G01 X6.9073 Y8.5440
G01 X6.9005 Y8.5412
G01 X6.8935 Y8.5389
G01 X6.8231 Y8.5182
G01 X6.8114 Y8.5158
G01 X6.7996 Y8.5148
G01 X5.7696 Y8.5148
G01 X5.7507 Y8.5156
G01 X5.7125 Y8.5192
G01 X5.6781 Y8.5157
G01 X5.6648 Y8.5148
G01 X5.6186 Y8.5097
G01 X5.5345 Y8.5011
G01 X5.5265 Y8.4995
G01 X5.4461 Y8.4740
G01 X5.3642 Y8.4489
G01 X5.3567 Y8.4457
G01 X5.2816 Y8.4045
G01 X5.2072 Y8.3646
G01 X5.2005 Y8.3600
G01 X5.1357 Y8.3057
G01 X5.1048 Y8.2803
G01 X5.0951 Y8.2716
G01 X5.0634 Y8.2450
G01 X5.0441 Y8.2211
G01 X5.0295 Y8.2050
G01 X4.6055 Y7.7809
G01 X4.5954 Y7.7721
G01 X4.5888 Y7.7675
G01 X4.5395 Y7.7360
G01 X4.5283 Y7.7304
G01 X4.5213 Y7.7278
G01 X4.5141 Y7.7257
G01 X4.5068 Y7.7241
G01 X4.4993 Y7.7231
G01 X4.4213 Y7.7176
G01 X4.4137 Y7.7178
G01 X4.4063 Y7.7184
G01 X4.3989 Y7.7196
G01 X4.3916 Y7.7214
G01 X4.3821 Y7.7246
G01 X4.3731 Y7.7287
G01 X4.3086 Y7.7639
G01 X4.3025 Y7.7675
G01 X4.2966 Y7.7716
G01 X4.2876 Y7.7793
G01 X3.5135 Y8.5534
G01 X3.5082 Y8.5594
G01 X3.4883 Y8.5843
G01 X3.4829 Y8.5925
G01 X3.4774 Y8.6034
G01 X3.4732 Y8.6149
G01 X3.4526 Y8.6854
G01 X3.4505 Y8.6947
G01 X3.4494 Y8.7041
G01 X3.4492 Y8.7112
G01 X3.4492 Y10.3168
G01 X3.4495 Y10.3248
G01 X3.4509 Y10.3354
G01 X3.4640 Y10.3953
G01 X3.4671 Y10.4048
G01 X3.4723 Y10.4161
G01 X3.4774 Y10.4247
G01 X3.4834 Y10.4327
G01 X3.5347 Y10.4918
G01 X3.5401 Y10.4971
G01 X3.5458 Y10.5019
G01 X3.5519 Y10.5063
G01 X3.5584 Y10.5102
G01 X3.5673 Y10.5146
G01 X3.5766 Y10.5181
G01 X3.6539 Y10.5405
G01 X3.6657 Y10.5424
G01 X3.6834 Y10.5428
G01 X3.7277 Y10.5476
G01 X3.8389 Y10.5893
G01 X3.9325 Y10.6595
G01 X4.0027 Y10.7531
G01 X4.0444 Y10.8643
G01 X4.0492 Y10.9086
G01 X4.0492 Y13.0978
G01 X4.0497 Y13.1085
G01 X4.0533 Y13.1402
G01 X4.0553 Y13.1498
G01 X4.0591 Y13.1614
G01 X4.0643 Y13.1725
G01 X4.0983 Y13.2349
G01 X4.1033 Y13.2430
G01 X4.1090 Y13.2506
G01 X4.1154 Y13.2576
G01 X4.2243 Y13.3666
G01 X4.2302 Y13.3721
G01 X4.2592 Y13.3951
G01 X4.2675 Y13.4003
G01 X4.2763 Y13.4046
G01 X4.2878 Y13.4088
G01 X4.3560 Y13.4288
G01 X4.3629 Y13.4305
G01 X4.3723 Y13.4321
G01 X4.3841 Y13.4328
G01 X5.5703 Y13.4327
G01 X5.5784 Y13.4321
G01 X5.6142 Y13.4275
G01 X5.6241 Y13.4252
G01 X5.6338 Y13.4220
G01 X5.6408 Y13.4189
G01 X5.6475 Y13.4152
G01 X5.7087 Y13.3792
G01 X5.7169 Y13.3739
G01 X5.7247 Y13.3676
G01 X5.7335 Y13.3587
G01 X5.7397 Y13.3508
G01 X5.7450 Y13.3424
G01 X5.7804 Y13.2727
G01 X5.7850 Y13.2612
G01 X5.7877 Y13.2515
G01 X5.7890 Y13.2441
G01 X5.7898 Y13.2366
G01 X5.7899 Y13.2241
G01 X5.7822 Y13.1488
G01 X5.7808 Y13.1391
G01 X5.7790 Y13.1318
G01 X5.7767 Y13.1247
G01 X5.7738 Y13.1177
G01 X5.7692 Y13.1088
G01 X5.7623 Y13.0985
G01 X5.7165 Y13.0412
G01 X5.7086 Y13.0323
G01 X5.7033 Y13.0275
G01 X5.6958 Y13.0217
G01 X5.5954 Y12.9514
G01 X5.4506 Y12.8066
G01 X5.3331 Y12.6388
G01 X5.2466 Y12.4532
G01 X5.1935 Y12.2553
G01 X5.1757 Y12.0513
G01 X5.1935 Y11.8473
G01 X5.2466 Y11.6495
G01 X5.3331 Y11.4638
G01 X5.4506 Y11.2961
G01 X5.5954 Y11.1512
G01 X5.7632 Y11.0338
G01 X5.9488 Y10.9472
G01 X6.0123 Y10.9302
G01 X6.1466 Y10.8942
G01 X6.3507 Y10.8763
G01 X6.5547 Y10.8942
G01 X6.7525 Y10.9472
G01 X6.9381 Y11.0338
G01 X7.1059 Y11.1512
G01 X7.2507 Y11.2961
G01 X7.3682 Y11.4638
G01 X7.4548 Y11.6495
G01 X7.5078 Y11.8473
G01 X7.5256 Y12.0513
G01 X7.5078 Y12.2553
G01 X7.4548 Y12.4532
G01 X7.3682 Y12.6388
G01 X7.2507 Y12.8066
G01 X7.1059 Y12.9514
G01 X6.9382 Y13.0689
G01 X6.8360 Y13.1165
G01 X6.8239 Y13.1232
G01 X6.8128 Y13.1315
G01 X6.7554 Y13.1817
G01 X6.7487 Y13.1890
G01 X6.7429 Y13.1969
G01 X6.7378 Y13.2054
G01 X6.7327 Y13.2166
G01 X6.7092 Y13.2937
G01 X6.7066 Y13.3058
G01 X6.7056 Y13.3158
G01 X6.7059 Y13.3283
G01 X6.7067 Y13.3357
G01 X6.7082 Y13.3431
G01 X6.7303 Y13.4205
G01 X6.7339 Y13.4299
G01 X6.7398 Y13.4409
G01 X6.7470 Y13.4512
G01 X6.7554 Y13.4604
G01 X6.8122 Y13.5106
G01 X6.8177 Y13.5151
G01 X6.8236 Y13.5192
G01 X6.8297 Y13.5229
G01 X6.8360 Y13.5261
G01 X6.9381 Y13.5738
G01 X7.1059 Y13.6912
G01 X7.2507 Y13.8361
G01 X7.3682 Y14.0038
G01 X7.4548 Y14.1895
G01 X7.5078 Y14.3873
G01 X7.5256 Y14.5913
G01 X7.5078 Y14.7953
G01 X7.4548 Y14.9932
G01 X7.3682 Y15.1788
G01 X7.2507 Y15.3466
G01 X7.1059 Y15.4914
G01 X6.9382 Y15.6089
G01 X6.7526 Y15.6954
G01 X6.5547 Y15.7484
G01 X6.3507 Y15.7663
G01 X6.1722 Y15.7507
G01 X6.1525 Y15.7498
G01 X3.8269 Y15.7498
G01 X3.7255 Y15.7514
G01 X3.7016 Y15.7485
G01 X3.6785 Y15.7471
G01 X3.6021 Y15.7313
G01 X3.5214 Y15.7180
G01 X3.5064 Y15.7129
G01 X3.4866 Y15.7074
G01 X3.4745 Y15.7049
G01 X3.4035 Y15.6763
G01 X3.3265 Y15.6489
G01 X3.3126 Y15.6413
G01 X3.2941 Y15.6324
G01 X3.2826 Y15.6277
G01 X3.2178 Y15.5871
G01 X3.1468 Y15.5465
G01 X3.1345 Y15.5365
G01 X3.1179 Y15.5245
G01 X3.1074 Y15.5178
G01 X3.0516 Y15.4670
G01 X3.0286 Y15.4477
G01 X3.0090 Y15.4283
G01 X2.9544 Y15.3787
G01 X2.9443 Y15.3655
G01 X2.9269 Y15.3459
G01 X1.7330 Y14.1521
G01 X1.6601 Y14.0814
G01 X1.6453 Y14.0624
G01 X1.6299 Y14.0451
G01 X1.5871 Y13.9799
G01 X1.5395 Y13.9134
G01 X1.5341 Y13.9022
G01 X1.5240 Y13.8843
G01 X1.5155 Y13.8710
G01 X1.4833 Y13.7958
G01 X1.4504 Y13.7268
G01 X1.4471 Y13.7148
G01 X1.4404 Y13.6954
G01 X1.4342 Y13.6804
G01 X1.4320 Y13.6732
G01 X1.4294 Y13.6665
G01 X1.4067 Y13.6222
G01 X1.4018 Y13.6141
G01 X1.3975 Y13.6083
G01 X1.3896 Y13.5994
G01 X1.3807 Y13.5915
G01 X1.3183 Y13.5448
G01 X1.3081 Y13.5387
G01 X1.2995 Y13.5347
G01 X1.2425 Y13.5133
G01 X1.1488 Y13.4431
G01 X1.0787 Y13.3495
G01 X1.0370 Y13.2383
G01 X1.0322 Y13.1940
G01 X1.0322 Y10.9086
G01 X1.0370 Y10.8643
G01 X1.0787 Y10.7531
G01 X1.1488 Y10.6595
G01 X1.2425 Y10.5893
G01 X1.3537 Y10.5476
G01 X1.3979 Y10.5428
G01 X1.4088 Y10.5428
G01 X1.4169 Y10.5422
G01 X1.4274 Y10.5405
G01 X1.4870 Y10.5273
G01 X1.4941 Y10.5249
G01 X1.5010 Y10.5219
G01 X1.5077 Y10.5185
G01 X1.5141 Y10.5146
G01 X1.5240 Y10.5070
G01 X1.5794 Y10.4589
G01 X1.5881 Y10.4500
G01 X1.5956 Y10.4400
G01 X1.6018 Y10.4292
G01 X1.6067 Y10.4176
G01 X1.6299 Y10.3381
G01 X1.6315 Y10.3287
G01 X1.6322 Y10.3168
G01 X1.6322 Y8.2953
G01 X1.6314 Y8.2764
G01 X1.6278 Y8.2381
G01 X1.6313 Y8.2037
G01 X1.6321 Y8.1904
G01 X1.6373 Y8.1441
G01 X1.6458 Y8.0602
G01 X1.6475 Y8.0522
G01 X1.6731 Y7.9716
G01 X1.6981 Y7.8898
G01 X1.7012 Y7.8823
G01 X1.7419 Y7.8083
G01 X1.7824 Y7.7328
G01 X1.7870 Y7.7261
G01 X1.8413 Y7.6613
G01 X1.8667 Y7.6304
G01 X1.8754 Y7.6207
G01 X1.9019 Y7.5891
G01 X1.9259 Y7.5698
G01 X1.9420 Y7.5552
G01 X2.8129 Y6.6842
G01 X2.8222 Y6.6736
G01 X2.8483 Y6.6373
G01 X2.8544 Y6.6273
G01 X2.8584 Y6.6186
G01 X2.8616 Y6.6096
G01 X2.8643 Y6.5983
G01 X2.8772 Y6.5261
G01 X2.8781 Y6.5190
G01 X2.8784 Y6.5119
G01 X2.8782 Y6.5048
G01 X2.8772 Y6.4940
G01 X2.8772 Y4.9086
G01 X2.8820 Y4.8643
G01 X2.9237 Y4.7531
G01 X2.9938 Y4.6595
G01 X3.0875 Y4.5893
G01 X3.1987 Y4.5476
G01 X3.2429 Y4.5428
G01 X4.3784 Y4.5428
G01 X4.4227 Y4.5476
G01 X4.5346 Y4.5896
G01 X4.5419 Y4.5939
G01 X4.5509 Y4.5982
G01 X4.5923 Y4.6132
G01 X4.6013 Y4.6159
G01 X4.6087 Y4.6175
G01 X4.6188 Y4.6188
G01 X4.6264 Y4.6190
G01 X4.6358 Y4.6185
G01 X4.6882 Y4.6134
G01 X4.7006 Y4.6130
G01 X4.7079 Y4.6121
G01 X4.7151 Y4.6106
G01 X4.9049 Y4.5549
G01 X5.0872 Y4.5383
G01 X5.2693 Y4.5575
G01 X5.4442 Y4.6116
G01 X5.6052 Y4.6987
G01 X5.7463 Y4.8154
G01 X5.8620 Y4.9572
G01 X5.9050 Y5.0383
G01 X5.8675 Y5.0798
G01 X5.8338 Y5.1251
G01 X5.8284 Y5.1332
G01 X5.7995 Y5.1817
G01 X5.7732 Y5.2371
G01 X5.7541 Y5.2902
G01 X5.7513 Y5.2996
G01 X5.7372 Y5.3568
G01 X5.7287 Y5.4151
G01 X5.7257 Y5.4739
G01 X5.7257 Y5.9263
G01 X5.7287 Y5.9876
G01 X5.7377 Y6.0482
G01 X5.7526 Y6.1077
G01 X5.7732 Y6.1655
G01 X5.7995 Y6.2209
G01 X5.8310 Y6.2735
G01 X5.8645 Y6.3189
G01 X5.8691 Y6.3247
G01 X5.9053 Y6.3647
G01 X5.9123 Y6.3716
G01 X5.9542 Y6.4094
G01 X5.9892 Y6.4356
G01 X5.9892 Y6.4745
G01 X5.9905 Y6.4878
G01 X6.0034 Y6.5478
G01 X6.0054 Y6.5551
G01 X6.0090 Y6.5644
G01 X6.0147 Y6.5755
G01 X6.0188 Y6.5818
G01 X6.0234 Y6.5877
G01 X6.0730 Y6.6451
G01 X6.0782 Y6.6504
G01 X6.0839 Y6.6553
G01 X6.0899 Y6.6598
G01 X6.0984 Y6.6652
G01 X6.1050 Y6.6686
G01 X6.1143 Y6.6723
G01 X6.1893 Y6.6944
G01 X6.2009 Y6.6968
G01 X6.2104 Y6.6977
G01 X6.8221 Y6.6978
G01 X6.8293 Y6.6976
G01 X6.8371 Y6.6967
G01 X6.8492 Y6.6941
G01 X6.9150 Y6.6755
G01 X6.9219 Y6.6733
G01 X6.9292 Y6.6703
G01 X6.9402 Y6.6645
G01 X7.1035 Y6.5644
G01 X7.2961 Y6.4893
G01 X7.4991 Y6.4495
G01 X7.7059 Y6.4462
G01 X7.9099 Y6.4797
G01 X8.1049 Y6.5487
G01 X8.2845 Y6.6512
G01 X8.4027 Y6.7500
G01 X9.9413 Y8.2885
G01 X9.9473 Y8.2938
G01 X9.9722 Y8.3137
G01 X9.9804 Y8.3190
G01 X9.9891 Y8.3236
G01 X9.9959 Y8.3264
G01 X10.0028 Y8.3288
G01 X10.0733 Y8.3494
G01 X10.0849 Y8.3518
G01 X10.0920 Y8.3526
G01 X10.0991 Y8.3528
G01 X16.3432 Y8.3528
G01 X16.3584 Y8.3523
G01 X16.3658 Y8.3516
G01 X16.3752 Y8.3498
G01 X16.3846 Y8.3471
G01 X16.4559 Y8.3205
G01 X16.4626 Y8.3175
G01 X16.4692 Y8.3140
G01 X16.4796 Y8.3070
G01 X16.4891 Y8.2987
G01 X16.4942 Y8.2933
G01 X16.4987 Y8.2876
G01 X16.5427 Y8.2289
G01 X16.5492 Y8.2183
G01 X16.5536 Y8.2093
G01 X16.5562 Y8.2023
G01 X16.5583 Y8.1950
G01 X16.5598 Y8.1877
G01 X16.5608 Y8.1804
G01 X16.5662 Y8.1048
G01 X16.5662 Y8.0949
G01 X16.5652 Y8.0849
G01 X16.5637 Y8.0776
G01 X16.5618 Y8.0703
G01 X16.5593 Y8.0632
G01 X16.5563 Y8.0563
G01 X16.5201 Y7.9898
G01 X16.5164 Y7.9837
G01 X16.5123 Y7.9778
G01 X16.5079 Y7.9722
G01 X16.5030 Y7.9670
G01 X15.7030 Y7.1670
G01 X15.6301 Y7.0964
G01 X15.6153 Y7.0774
G01 X15.5999 Y7.0601
G01 X15.5571 Y6.9949
G01 X15.5095 Y6.9284
G01 X15.5041 Y6.9172
G01 X15.4940 Y6.8993
G01 X15.4855 Y6.8860
G01 X15.4533 Y6.8108
G01 X15.4204 Y6.7418
G01 X15.4160 Y6.7266
G01 X15.4092 Y6.7072
G01 X15.4044 Y6.6958
G01 X15.4024 Y6.6874
G01 X15.3995 Y6.6787
G01 X15.3795 Y6.6322
G01 X15.3732 Y6.6200
G01 X15.3632 Y6.6050
G01 X15.2720 Y6.4025
G01 X15.2162 Y6.1876
G01 X15.2022 Y6.0221
G01 X15.2022 Y4.0607
G01 X15.2029 Y4.0446
G01 X15.2428 Y3.8242
G01 X15.3185 Y3.6155
G01 X15.4284 Y3.4225
G01 X15.5692 Y3.2508
G01 X15.7369 Y3.1052
G01 X15.9268 Y2.9900
G01 X16.1333 Y2.9085
G01 X16.3506 Y2.8629
G01 X16.5725 Y2.8545
G01 X16.7927 Y2.8837
G01 X17.0047 Y2.9496
G01 X17.2027 Y3.0502
G01 X17.3808 Y3.1828
G01 X17.5341 Y3.3434
G01 X17.6581 Y3.5276
G01 X17.7493 Y3.7301
G01 X17.8051 Y3.9450
G01 X17.8192 Y4.1105
G01 X17.8192 Y5.9155
G01 X17.8197 Y5.9235
G01 X17.8233 Y5.9552
G01 X17.8253 Y5.9648
G01 X17.8282 Y5.9741
G01 X17.8310 Y5.9810
G01 X17.8343 Y5.9875
G01 X17.8707 Y6.0540
G01 X17.8775 Y6.0637
G01 X17.8854 Y6.0726
G01 X19.8583 Y8.0456
G01 X19.9312 Y8.1163
G01 X19.9460 Y8.1352
G01 X19.9614 Y8.1525
G01 X20.0043 Y8.2177
G01 X20.0519 Y8.2842
G01 X20.0573 Y8.2954
G01 X20.0673 Y8.3133
G01 X20.0758 Y8.3267
G01 X20.1054 Y8.3960
G01 X20.1167 Y8.4199
G01 X20.1221 Y8.4302
G01 X20.1259 Y8.4366
G01 X20.1315 Y8.4443
G01 X20.1381 Y8.4516
G01 X20.1945 Y8.5061
G01 X20.2044 Y8.5137
G01 X20.2108 Y8.5177
G01 X20.2174 Y8.5212
G01 X20.2290 Y8.5259
G01 X20.2409 Y8.5290
G01 X20.3128 Y8.5434
G01 X20.3252 Y8.5448
G01 X20.3352 Y8.5448
G01 X20.3476 Y8.5434
G01 X20.3550 Y8.5418
G01 X20.3622 Y8.5396
G01 X20.4349 Y8.5112
G01 X20.4439 Y8.5069
G01 X20.4524 Y8.5017
G01 X20.4604 Y8.4957
G01 X20.4678 Y8.4889
G01 X20.4728 Y8.4833
G01 X20.4773 Y8.4776
G01 X20.5228 Y8.4141
G01 X20.5285 Y8.4036
G01 X20.5331 Y8.3921
G01 X20.5392 Y8.3813
G01 X20.5481 Y8.3628
G01 X20.5543 Y8.3482
G01 X20.5976 Y8.2789
G01 X20.6355 Y8.2125
G01 X20.6434 Y8.2029
G01 X20.6556 Y8.1863
G01 X20.6641 Y8.1731
G01 X20.7149 Y8.1172
G01 X20.7343 Y8.0943
G01 X20.7537 Y8.0747
G01 X20.8033 Y8.0201
G01 X20.8165 Y8.0100
G01 X20.8361 Y7.9925
G01 X22.2123 Y6.6163
G01 X22.2208 Y6.6066
G01 X22.2268 Y6.5980
G01 X22.2587 Y6.5459
G01 X22.2622 Y6.5393
G01 X22.2652 Y6.5326
G01 X22.2676 Y6.5257
G01 X22.2696 Y6.5186
G01 X22.2710 Y6.5114
G01 X22.2719 Y6.5041
G01 X22.2744 Y6.4280
G01 X22.2744 Y6.4209
G01 X22.2739 Y6.4137
G01 X22.2728 Y6.4067
G01 X22.2713 Y6.3997
G01 X22.2162 Y6.1876
G01 X22.2022 Y6.0221
G01 X22.2022 Y4.0607
G01 X22.2029 Y4.0446
G01 X22.2428 Y3.8242
G01 X22.3185 Y3.6155
G01 X22.4284 Y3.4225
G01 X22.5692 Y3.2508
G01 X22.7369 Y3.1052
G01 X22.9268 Y2.9900
G01 X23.1333 Y2.9085
G01 X23.3506 Y2.8629
G01 X23.5725 Y2.8545
G01 X23.7927 Y2.8837
G01 X23.8704 Y2.9078
G01 X24.0047 Y2.9496
G01 X24.2027 Y3.0502
G01 X24.3808 Y3.1828
G01 X24.5341 Y3.3434
G01 X24.6581 Y3.5276
G01 X24.7493 Y3.7301
G01 X24.8051 Y3.9450
G01 X24.8192 Y4.1105
G01 X24.8192 Y6.0719
G01 X24.8184 Y6.0880
G01 X24.7786 Y6.3084
G01 X24.7028 Y6.5172
G01 X24.6956 Y6.5302
G01 X24.6909 Y6.5416
G01 X24.6725 Y6.6105
G01 X24.6705 Y6.6195
G01 X24.6696 Y6.6268
G01 X24.6692 Y6.6360
G01 X24.6692 Y6.9401
G01 X24.6707 Y7.0415
G01 X24.6678 Y7.0654
G01 X24.6665 Y7.0885
G01 X24.6507 Y7.1649
G01 X24.6373 Y7.2456
G01 X24.6322 Y7.2606
G01 X24.6268 Y7.2804
G01 X24.6242 Y7.2925
G01 X24.5957 Y7.3635
G01 X24.5683 Y7.4405
G01 X24.5606 Y7.4544
G01 X24.5518 Y7.4729
G01 X24.5471 Y7.4844
G01 X24.5064 Y7.5492
G01 X24.4658 Y7.6202
G01 X24.4579 Y7.6297
G01 X24.4458 Y7.6463
G01 X24.4372 Y7.6596
G01 X24.3864 Y7.7154
G01 X24.3670 Y7.7383
G01 X24.3477 Y7.7580
G01 X24.2980 Y7.8125
G01 X24.2849 Y7.8227
G01 X24.2652 Y7.8401
G01 X24.1298 Y7.9756
G01 X24.1234 Y7.9830
G01 X24.1165 Y7.9930
G01 X24.0775 Y8.0656
G01 X24.0730 Y8.0767
G01 X24.0699 Y8.0884
G01 X24.0681 Y8.1003
G01 X24.0679 Y8.1123
G01 X24.0747 Y8.1926
G01 X24.0765 Y8.2024
G01 X24.0802 Y8.2144
G01 X24.0853 Y8.2258
G01 X24.0918 Y8.2365
G01 X24.1379 Y8.2966
G01 X24.1426 Y8.3022
G01 X24.1478 Y8.3076
G01 X24.1534 Y8.3126
G01 X24.1594 Y8.3172
G01 X24.1657 Y8.3213
G01 X24.1722 Y8.3249
G01 X24.1813 Y8.3289
G01 X24.2504 Y8.3537
G01 X24.2595 Y8.3564
G01 X24.2664 Y8.3579
G01 X24.2735 Y8.3589
G01 X24.3006 Y8.3606
G01 X24.5017 Y8.4089
G01 X24.6910 Y8.4920
G01 X24.8627 Y8.6073
G01 X25.0112 Y8.7513
G01 X25.1319 Y8.9192
G01 X25.2209 Y9.1059
G01 X25.2755 Y9.3053
G01 X25.2892 Y9.4588
G01 X25.2892 Y11.4001
G01 X25.2907 Y11.5015
G01 X25.2878 Y11.5254
G01 X25.2865 Y11.5485
G01 X25.2707 Y11.6249
G01 X25.2573 Y11.7056
G01 X25.2522 Y11.7206
G01 X25.2468 Y11.7404
G01 X25.2442 Y11.7525
G01 X25.2157 Y11.8235
G01 X25.1883 Y11.9005
G01 X25.1806 Y11.9144
G01 X25.1718 Y11.9329
G01 X25.1671 Y11.9444
G01 X25.1264 Y12.0092
G01 X25.0858 Y12.0802
G01 X25.0758 Y12.0925
G01 X25.0638 Y12.1091
G01 X25.0572 Y12.1196
G01 X25.0064 Y12.1754
G01 X24.9870 Y12.1983
G01 X24.9677 Y12.2180
G01 X24.9180 Y12.2725
G01 X24.9049 Y12.2827
G01 X24.8852 Y12.3001
G01 X24.7718 Y12.4136
G01 X24.7574 Y12.4294
G01 X24.7503 Y12.4393
G01 X24.7442 Y12.4503
G01 X24.7148 Y12.5180
G01 X24.7114 Y12.5271
G01 X24.7094 Y12.5343
G01 X24.7079 Y12.5417
G01 X24.7069 Y12.5491
G01 X24.7066 Y12.5592
G01 X24.7075 Y12.5715
G01 X24.7202 Y12.6486
G01 X24.7220 Y12.6559
G01 X24.7253 Y12.6654
G01 X24.7295 Y12.6744
G01 X24.7346 Y12.6831
G01 X24.7390 Y12.6892
G01 X24.7437 Y12.6947
G01 X24.7944 Y12.7510
G01 X24.7996 Y12.7559
G01 X24.8052 Y12.7604
G01 X24.8110 Y12.7645
G01 X24.8216 Y12.7710
G01 X24.9302 Y12.8795
G01 X25.0110 Y13.0101
G01 X25.0599 Y13.1564
G01 X25.0692 Y13.2461
G01 X25.0692 Y14.6366
G01 X25.0601 Y14.7251
G01 X25.0115 Y14.8715
G01 X24.9310 Y15.0022
G01 X24.8225 Y15.1109
G01 X24.6919 Y15.1917
G01 X24.5456 Y15.2405
G01 X24.4559 Y15.2498
G01 X21.2654 Y15.2498
G01 X21.1769 Y15.2407
G01 X21.0305 Y15.1922
G01 X20.8998 Y15.1116
G01 X20.7911 Y15.0031
G01 X20.7103 Y14.8726
G01 X20.6615 Y14.7262
G01 X20.6522 Y14.6365
G01 X20.6522 Y13.8638
G01 X20.6512 Y13.8435
G01 X20.6501 Y13.8365
G01 X20.6486 Y13.8295
G01 X20.6455 Y13.8199
G01 X20.6199 Y13.7511
G01 X20.6146 Y13.7399
G01 X20.6078 Y13.7294
G01 X20.5998 Y13.7197
G01 X20.5907 Y13.7112
G01 X20.5301 Y13.6657
G01 X20.5199 Y13.6589
G01 X20.5086 Y13.6534
G01 X20.4992 Y13.6500
G01 X20.4870 Y13.6472
G01 X20.4773 Y13.6460
G01 X20.4065 Y13.6409
G01 X20.3942 Y13.6408
G01 X20.3843 Y13.6418
G01 X20.3745 Y13.6438
G01 X20.3649 Y13.6468
G01 X20.3557 Y13.6507
G01 X20.2871 Y13.6881
G01 X20.2771 Y13.6946
G01 X20.2681 Y13.7023
G01 X18.5714 Y15.3989
G01 X18.5007 Y15.4718
G01 X18.4818 Y15.4867
G01 X18.4645 Y15.5020
G01 X18.3993 Y15.5449
G01 X18.3328 Y15.5925
G01 X18.3216 Y15.5979
G01 X18.3037 Y15.6079
G01 X18.2903 Y15.6164
G01 X18.2152 Y15.6486
G01 X18.1461 Y15.6816
G01 X18.1309 Y15.6860
G01 X18.1116 Y15.6928
G01 X18.1001 Y15.6976
G01 X18.0255 Y15.7147
G01 X17.9466 Y15.7361
G01 X17.9343 Y15.7373
G01 X17.9140 Y15.7404
G01 X17.8985 Y15.7437
G01 X17.8232 Y15.7473
G01 X17.7932 Y15.7498
G01 X17.7656 Y15.7500
G01 X17.6920 Y15.7535
G01 X17.6755 Y15.7514
G01 X17.6493 Y15.7498
G01 X16.7099 Y15.7498
G01 X16.6965 Y15.7507
G01 X16.6412 Y15.7608
G01 X16.6341 Y15.7629
G01 X16.6272 Y15.7655
G01 X16.6204 Y15.7687
G01 X16.6140 Y15.7723
G01 X16.6060 Y15.7776
G01 X16.5700 Y15.8046
G01 X16.5622 Y15.8091
G01 X16.5541 Y15.8147
G01 X16.5467 Y15.8211
G01 X16.5330 Y15.8352
G01 X16.4389 Y15.9058
G01 X16.3277 Y15.9475
G01 X16.2834 Y15.9523
G01 X14.1979 Y15.9523
G01 X14.1537 Y15.9475
G01 X14.0425 Y15.9058
G01 X13.9483 Y15.8352
G01 X13.9347 Y15.8212
G01 X13.9069 Y15.7958
G01 X13.8984 Y15.7889
G01 X13.8901 Y15.7835
G01 X13.8814 Y15.7790
G01 X13.8700 Y15.7745
G01 X13.7973 Y15.7532
G01 X13.7904 Y15.7516
G01 X13.7833 Y15.7505
G01 X13.7715 Y15.7498
G01 X12.8125 Y15.7499
G01 X12.8045 Y15.7504
G01 X12.7965 Y15.7516
G01 X12.7367 Y15.7647
G01 X12.7296 Y15.7669
G01 X12.7226 Y15.7697
G01 X12.7158 Y15.7729
G01 X12.7094 Y15.7767
G01 X12.7032 Y15.7809
G01 X12.6973 Y15.7856
G01 X12.6419 Y15.8337
G01 X12.6366 Y15.8389
G01 X12.6317 Y15.8445
G01 X12.6244 Y15.8547
G01 X12.6184 Y15.8657
G01 X12.6155 Y15.8726
G01 X12.6132 Y15.8795
G01 X12.5926 Y15.9499
G01 X12.5902 Y15.9616
G01 X12.5892 Y15.9734
G01 X12.5892 Y22.0132
G01 X12.5900 Y22.0329
G01 X12.6056 Y22.2113
G01 X12.5878 Y22.4153
G01 X12.5348 Y22.6132
G01 X12.4482 Y22.7988
G01 X12.3307 Y22.9666
G01 X12.1859 Y23.1114
G01 X12.0182 Y23.2289
G01 X11.8325 Y23.3154
G01 X11.6347 Y23.3684
G01 X11.4307 Y23.3863
G01 X11.2522 Y23.3707
G01 X11.2325 Y23.3698
G01 X6.5488 Y23.3698
G01 X6.5291 Y23.3707
G01 X6.3507 Y23.3863
G01 X6.1722 Y23.3707
G01 X6.1525 Y23.3698
G01 X3.5870 Y23.3699
G01 X3.5597 Y23.3719
G01 X3.5503 Y23.3737
G01 X3.5410 Y23.3763
G01 X3.5324 Y23.3797
G01 X3.4655 Y23.4097
G01 X3.4571 Y23.4142
G01 X3.4492 Y23.4195
G01 X3.4301 Y23.4355
G01 X3.2276 Y23.5596
G01 X3.0083 Y23.6504
G01 X2.7774 Y23.7058
G01 X2.5407 Y23.7245
G01 X2.3040 Y23.7059
G01 X2.0731 Y23.6504
G01 X1.8537 Y23.5596
G01 X1.6512 Y23.4355
G01 X1.4707 Y23.2813
G01 X1.3165 Y23.1007
G01 X1.1924 Y22.8983
G01 X1.1016 Y22.6789
G01 X1.0461 Y22.4480
G01 X1.0275 Y22.2113
G00 Z2.0000
G00 X6.8746 Y8.3666
G01 F60.00
G01 Z0.0000
G01 F80.00
G01 X6.9520 Y8.3666
G01 X6.9949 Y8.4094
G01 X6.9858 Y8.4044
G01 X6.9744 Y8.3988
G01 X6.9627 Y8.3937
G01 X6.9507 Y8.3892
G01 X6.9386 Y8.3853
G01 X6.8746 Y8.3666
G00 Z2.0000
G00 X6.9868 Y6.8197
G01 F60.00
G01 Z0.0000
G01 F80.00
G01 X6.9748 Y6.8294
G01 X6.9563 Y6.8461
G01 X6.8997 Y6.8461
G01 X6.9642 Y6.8278
G01 X6.9763 Y6.8238
G01 X6.9868 Y6.8197
G00 Z2.0000
G00 X6.1378 Y6.8461
G01 F60.00
G01 Z0.0000
G01 F80.00
G01 X6.0306 Y6.8461
G01 X5.8409 Y6.6564
G01 X5.8409 Y6.5538
G01 X5.8480 Y6.5858
G01 X5.8513 Y6.5983
G01 X5.8554 Y6.6107
G01 X5.8600 Y6.6228
G01 X5.8652 Y6.6347
G01 X5.8710 Y6.6463
G01 X5.8774 Y6.6576
G01 X5.8880 Y6.6740
G01 X5.8999 Y6.6895
G01 X5.9505 Y6.7481
G01 X5.9634 Y6.7619
G01 X5.9778 Y6.7752
G01 X5.9931 Y6.7873
G01 X6.0037 Y6.7948
G01 X6.0148 Y6.8017
G01 X6.0320 Y6.8110
G01 X6.0498 Y6.8189
G01 X6.0679 Y6.8255
G01 X6.1378 Y6.8461
G00 Z2.0000
G00 X10.0213 Y8.5009
G01 F60.00
G01 Z0.0000
G01 F80.00
G01 X9.9442 Y8.5009
G01 X9.9014 Y8.4582
G01 X9.9105 Y8.4632
G01 X9.9220 Y8.4688
G01 X9.9337 Y8.4739
G01 X9.9456 Y8.4784
G01 X9.9578 Y8.4823
G01 X10.0213 Y8.5009
G00 Z2.0000
G00 X17.7256 Y6.1224
G01 F60.00
G01 Z0.0000
G01 F80.00
G01 X17.6662 Y6.0630
G01 X17.6693 Y6.0005
G01 X17.6721 Y6.0112
G01 X17.6759 Y6.0234
G01 X17.6803 Y6.0354
G01 X17.6853 Y6.0471
G01 X17.6938 Y6.0642
G01 X17.7256 Y6.1224
G00 Z2.0000
G00 X22.3739 Y6.6642
G01 F60.00
G01 Z0.0000
G01 F80.00
G01 X22.3972 Y6.6262
G01 X22.4035 Y6.6147
G01 X22.4090 Y6.6032
G01 X22.4140 Y6.5915
G01 X22.4183 Y6.5796
G01 X22.4222 Y6.5675
G01 X22.4267 Y6.5490
G01 X22.4290 Y6.5364
G01 X22.4307 Y6.5238
G01 X22.4321 Y6.5040
G01 X22.4345 Y6.4269
G01 X22.4339 Y6.4083
G01 X22.4325 Y6.3931
G01 X22.4390 Y6.4102
G01 X22.4441 Y6.4219
G01 X22.4847 Y6.5075
G01 X22.4907 Y6.5187
G01 X22.5003 Y6.5349
G01 X22.5003 Y6.5378
G01 X22.3739 Y6.6642
G00 Z2.0000
G00 X24.5319 Y6.5165
G01 F60.00
G01 Z0.0000
G01 F80.00
G01 X24.5210 Y6.5573
G01 X24.5210 Y6.5349
G01 X24.5319 Y6.5165
G00 Z2.0000
G00 X24.6709 Y12.8530
G01 F60.00
G01 Z0.0000
G01 F80.00
G01 X24.6567 Y12.8446
G01 X24.6397 Y12.8358
G01 X24.6117 Y12.8227
G01 X24.5939 Y12.8155
G01 X24.5648 Y12.8052
G01 X24.5526 Y12.8015
G01 X24.5164 Y12.7924
G01 X24.4976 Y12.7889
G01 X24.4607 Y12.7838
G01 X24.4170 Y12.7814
G01 X24.1946 Y12.7813
G01 X24.6053 Y12.3706
G01 X24.5963 Y12.3891
G01 X24.5657 Y12.4599
G01 X24.5591 Y12.4780
G01 X24.5538 Y12.4968
G01 X24.5500 Y12.5159
G01 X24.5482 Y12.5289
G01 X24.5471 Y12.5418
G01 X24.5466 Y12.5548
G01 X24.5468 Y12.5679
G01 X24.5476 Y12.5809
G01 X24.5490 Y12.5935
G01 X24.5614 Y12.6697
G01 X24.5651 Y12.6882
G01 X24.5684 Y12.7008
G01 X24.5724 Y12.7132
G01 X24.5770 Y12.7254
G01 X24.5822 Y12.7373
G01 X24.5880 Y12.7490
G01 X24.5977 Y12.7659
G01 X24.6049 Y12.7768
G01 X24.6126 Y12.7873
G01 X24.6247 Y12.8018
G01 X24.6709 Y12.8530
G00 Z2.0000
G00 X22.0103 Y12.9413
G01 F60.00
G01 Z0.0000
G01 F80.00
G01 X22.0104 Y12.6814
G01 X22.0144 Y12.6030
G01 X22.0266 Y12.5204
G01 X22.0469 Y12.4395
G01 X22.0750 Y12.3609
G01 X22.1107 Y12.2855
G01 X22.1536 Y12.2139
G01 X22.2033 Y12.1468
G01 X22.2594 Y12.0850
G01 X23.2803 Y11.0641
G01 X23.2803 Y9.5113
G01 X23.2842 Y9.4304
G01 X23.2850 Y9.4231
G01 X23.2966 Y9.3454
G01 X23.3156 Y9.2692
G01 X23.3184 Y9.2598
G01 X23.3450 Y9.1859
G01 X23.3785 Y9.1148
G01 X23.3831 Y9.1062
G01 X23.4223 Y9.0409
G01 X23.4264 Y9.0349
G01 X23.4733 Y8.9718
G01 X23.5294 Y8.9100
G01 X23.5912 Y8.8540
G01 X23.6582 Y8.8043
G01 X23.7298 Y8.7614
G01 X23.8052 Y8.7257
G01 X23.8838 Y8.6976
G01 X23.9648 Y8.6773
G01 X24.0473 Y8.6650
G01 X24.1307 Y8.6609
G01 X24.2140 Y8.6650
G01 X24.2966 Y8.6773
G01 X24.3775 Y8.6976
G01 X24.4561 Y8.7257
G01 X24.5315 Y8.7614
G01 X24.6011 Y8.8029
G01 X24.6071 Y8.8071
G01 X24.6701 Y8.8540
G01 X24.7320 Y8.9100
G01 X24.7880 Y8.9718
G01 X24.8349 Y9.0349
G01 X24.8404 Y9.0430
G01 X24.8806 Y9.1105
G01 X24.9143 Y9.1814
G01 X24.9181 Y9.1905
G01 X24.9429 Y9.2598
G01 X24.9457 Y9.2692
G01 X24.9647 Y9.3454
G01 X24.9767 Y9.4255
G01 X24.9773 Y9.4329
G01 X24.9810 Y9.5113
G01 X24.9810 Y11.4163
G01 X24.9769 Y11.4997
G01 X24.9647 Y11.5822
G01 X24.9457 Y11.6584
G01 X24.9429 Y11.6678
G01 X24.9163 Y11.7417
G01 X24.8828 Y11.8128
G01 X24.8782 Y11.8215
G01 X24.8377 Y11.8888
G01 X24.7910 Y11.9519
G01 X24.7864 Y11.9577
G01 X24.7320 Y12.0176
G01 X23.8083 Y12.9413
G01 X24.4107 Y12.9413
G01 X24.4450 Y12.9430
G01 X24.4789 Y12.9480
G01 X24.5123 Y12.9564
G01 X24.5400 Y12.9662
G01 X24.5491 Y12.9699
G01 X24.5757 Y12.9826
G01 X24.6010 Y12.9977
G01 X24.6071 Y13.0017
G01 X24.6288 Y13.0177
G01 X24.6364 Y13.0240
G01 X24.6582 Y13.0438
G01 X24.6812 Y13.0693
G01 X24.7017 Y13.0969
G01 X24.7169 Y13.1221
G01 X24.7215 Y13.1307
G01 X24.7331 Y13.1551
G01 X24.7358 Y13.1620
G01 X24.7456 Y13.1897
G01 X24.7529 Y13.2182
G01 X24.7548 Y13.2279
G01 X24.7590 Y13.2570
G01 X24.7606 Y13.2889
G01 X24.7607 Y14.5913
G01 X24.7593 Y14.6207
G01 X24.7584 Y14.6305
G01 X24.7539 Y14.6596
G01 X24.7456 Y14.6929
G01 X24.7358 Y14.7207
G01 X24.7320 Y14.7297
G01 X24.7193 Y14.7563
G01 X24.7017 Y14.7858
G01 X24.6812 Y14.8134
G01 X24.6615 Y14.8352
G01 X24.6546 Y14.8422
G01 X24.6327 Y14.8619
G01 X24.6091 Y14.8795
G01 X24.6010 Y14.8850
G01 X24.5757 Y14.9000
G01 X24.5446 Y14.9147
G01 X24.5169 Y14.9247
G01 X24.5075 Y14.9276
G01 X24.4789 Y14.9346
G01 X24.4498 Y14.9390
G01 X24.4401 Y14.9400
G01 X24.4131 Y14.9413
G01 X21.3082 Y14.9413
G01 X21.2764 Y14.9396
G01 X21.2472 Y14.9354
G01 X21.2376 Y14.9335
G01 X21.2091 Y14.9262
G01 X21.1813 Y14.9164
G01 X21.1722 Y14.9127
G01 X21.1457 Y14.9000
G01 X21.1162 Y14.8823
G01 X21.0886 Y14.8619
G01 X21.0667 Y14.8422
G01 X21.0598 Y14.8352
G01 X21.0401 Y14.8134
G01 X21.0225 Y14.7898
G01 X21.0183 Y14.7837
G01 X21.0044 Y14.7606
G01 X20.9998 Y14.7519
G01 X20.9873 Y14.7253
G01 X20.9757 Y14.6929
G01 X20.9674 Y14.6596
G01 X20.9621 Y14.6232
G01 X20.9607 Y14.5913
G01 X20.9607 Y13.2889
G01 X20.9624 Y13.2570
G01 X20.9674 Y13.2230
G01 X20.9757 Y13.1897
G01 X20.9855 Y13.1620
G01 X20.9893 Y13.1529
G01 X21.0020 Y13.1263
G01 X21.0170 Y13.1010
G01 X21.0210 Y13.0948
G01 X21.0371 Y13.0731
G01 X21.0433 Y13.0656
G01 X21.0632 Y13.0438
G01 X21.0886 Y13.0208
G01 X21.1122 Y13.0031
G01 X21.1204 Y12.9977
G01 X21.1457 Y12.9826
G01 X21.1722 Y12.9699
G01 X21.1813 Y12.9662
G01 X21.2091 Y12.9564
G01 X21.2424 Y12.9480
G01 X21.2764 Y12.9430
G01 X21.3107 Y12.9413
G01 X22.0103 Y12.9413
G00 Z2.0000
G00 X21.8503 Y12.7813
G01 F60.00
G01 Z0.0000
G01 F80.00
G01 X21.3043 Y12.7814
G01 X21.2607 Y12.7838
G01 X21.2174 Y12.7899
G01 X21.1987 Y12.7939
G01 X21.1687 Y12.8015
G01 X21.1565 Y12.8052
G01 X21.1155 Y12.8201
G01 X21.0759 Y12.8386
G01 X21.0647 Y12.8446
G01 X21.0381 Y12.8604
G01 X21.0221 Y12.8709
G01 X20.9871 Y12.8971
G01 X20.9546 Y12.9262
G01 X20.9456 Y12.9353
G01 X20.9248 Y12.9581
G01 X20.9164 Y12.9678
G01 X20.9086 Y12.9778
G01 X20.8866 Y13.0080
G01 X20.8672 Y13.0398
G01 X20.8609 Y13.0509
G01 X20.8447 Y13.0845
G01 X20.8395 Y13.0961
G01 X20.8266 Y13.1312
G01 X20.8226 Y13.1433
G01 X20.8192 Y13.1556
G01 X20.8118 Y13.1856
G01 X20.8093 Y13.1981
G01 X20.8031 Y13.2413
G01 X20.8007 Y13.2849
G01 X20.8007 Y13.7794
G01 X20.7955 Y13.7639
G01 X20.7706 Y13.6974
G01 X20.7660 Y13.6859
G01 X20.7606 Y13.6741
G01 X20.7514 Y13.6569
G01 X20.7445 Y13.6458
G01 X20.7332 Y13.6299
G01 X20.7250 Y13.6197
G01 X20.7163 Y13.6100
G01 X20.7072 Y13.6008
G01 X20.6926 Y13.5878
G01 X20.6828 Y13.5801
G01 X20.6260 Y13.5376
G01 X20.6105 Y13.5268
G01 X20.5994 Y13.5201
G01 X20.5879 Y13.5139
G01 X20.5701 Y13.5057
G01 X20.5518 Y13.4989
G01 X20.5394 Y13.4951
G01 X20.5204 Y13.4906
G01 X20.5011 Y13.4876
G01 X20.4887 Y13.4864
G01 X20.4118 Y13.4810
G01 X20.3925 Y13.4808
G01 X20.3730 Y13.4820
G01 X20.3537 Y13.4847
G01 X20.3346 Y13.4889
G01 X20.3221 Y13.4924
G01 X20.3037 Y13.4989
G01 X20.2917 Y13.5040
G01 X20.2802 Y13.5096
G01 X20.2166 Y13.5442
G01 X22.3051 Y11.4558
G01 X22.3139 Y11.4465
G01 X22.3634 Y11.3920
G01 X22.3717 Y11.3823
G01 X22.3795 Y11.3722
G01 X22.4234 Y11.3131
G01 X22.4308 Y11.3026
G01 X22.4376 Y11.2919
G01 X22.4754 Y11.2287
G01 X22.4817 Y11.2176
G01 X22.4875 Y11.2062
G01 X22.5190 Y11.1396
G01 X22.5241 Y11.1280
G01 X22.5287 Y11.1161
G01 X22.5535 Y11.0467
G01 X22.5575 Y11.0346
G01 X22.5609 Y11.0223
G01 X22.5788 Y10.9509
G01 X22.5816 Y10.9384
G01 X22.5838 Y10.9259
G01 X22.5946 Y10.8530
G01 X22.5967 Y10.8340
G01 X22.6007 Y10.7541
G01 X22.6010 Y10.7413
G01 X22.6010 Y9.2948
G01 X23.9718 Y7.9241
G01 X23.9358 Y7.9911
G01 X23.9305 Y8.0024
G01 X23.9256 Y8.0140
G01 X23.9194 Y8.0317
G01 X23.9160 Y8.0438
G01 X23.9120 Y8.0621
G01 X23.9093 Y8.0807
G01 X23.9080 Y8.0995
G01 X23.9080 Y8.1182
G01 X23.9087 Y8.1307
G01 X23.9154 Y8.2076
G01 X23.9182 Y8.2266
G01 X23.9209 Y8.2394
G01 X23.9242 Y8.2520
G01 X23.9303 Y8.2705
G01 X23.9379 Y8.2885
G01 X23.9436 Y8.3002
G01 X23.9534 Y8.3172
G01 X23.9641 Y8.3331
G01 X24.0112 Y8.3943
G01 X24.0190 Y8.4039
G01 X24.0322 Y8.4183
G01 X24.0464 Y8.4317
G01 X24.0616 Y8.4439
G01 X24.0777 Y8.4550
G01 X24.0889 Y8.4617
G01 X24.1062 Y8.4707
G01 X24.1239 Y8.4783
G01 X24.1950 Y8.5038
G01 X24.1434 Y8.5013
G01 X24.1243 Y8.5010
G01 X24.0444 Y8.5049
G01 X24.0316 Y8.5058
G01 X24.0190 Y8.5074
G01 X23.9461 Y8.5182
G01 X23.9336 Y8.5204
G01 X23.9211 Y8.5232
G01 X23.8435 Y8.5427
G01 X23.8253 Y8.5484
G01 X23.7559 Y8.5733
G01 X23.7440 Y8.5779
G01 X23.7323 Y8.5830
G01 X23.6658 Y8.6145
G01 X23.6544 Y8.6202
G01 X23.6433 Y8.6265
G01 X23.5801 Y8.6644
G01 X23.5641 Y8.6748
G01 X23.4998 Y8.7224
G01 X23.4897 Y8.7303
G01 X23.4800 Y8.7386
G01 X23.4255 Y8.7881
G01 X23.4162 Y8.7969
G01 X23.4074 Y8.8061
G01 X23.3580 Y8.8607
G01 X23.3496 Y8.8703
G01 X23.3418 Y8.8804
G01 X23.2979 Y8.9395
G01 X23.2906 Y8.9500
G01 X23.2837 Y8.9608
G01 X23.2427 Y9.0294
G01 X23.2339 Y9.0464
G01 X23.2024 Y9.1130
G01 X23.1972 Y9.1247
G01 X23.1926 Y9.1366
G01 X23.1678 Y9.2059
G01 X23.1620 Y9.2241
G01 X23.1425 Y9.3017
G01 X23.1397 Y9.3142
G01 X23.1375 Y9.3268
G01 X23.1267 Y9.3996
G01 X23.1252 Y9.4123
G01 X23.1242 Y9.4250
G01 X23.1204 Y9.5049
G01 X23.1203 Y10.9978
G01 X22.1462 Y11.9719
G01 X22.1374 Y11.9811
G01 X22.0880 Y12.0357
G01 X22.0796 Y12.0453
G01 X22.0718 Y12.0554
G01 X22.0242 Y12.1197
G01 X22.0137 Y12.1358
G01 X21.9759 Y12.1989
G01 X21.9696 Y12.2100
G01 X21.9639 Y12.2214
G01 X21.9324 Y12.2880
G01 X21.9272 Y12.2997
G01 X21.9226 Y12.3116
G01 X21.8957 Y12.3869
G01 X21.8904 Y12.4053
G01 X21.8725 Y12.4767
G01 X21.8697 Y12.4892
G01 X21.8675 Y12.5018
G01 X21.8567 Y12.5746
G01 X21.8552 Y12.5873
G01 X21.8542 Y12.6000
G01 X21.8504 Y12.6799
G01 X21.8503 Y12.7813
G00 Z2.0000
G00 X21.3808 Y19.9309
G01 F60.00
G01 Z0.0000
G01 F80.00
G01 X21.3984 Y19.9272
G01 X21.3921 Y19.9309
G01 X21.3808 Y19.9309
G00 Z2.0000
G00 X21.4105 Y21.9625
G01 F60.00
G01 Z0.0000
G01 F80.00
G01 X21.3696 Y21.9517
G01 X21.3921 Y21.9517
G01 X21.4105 Y21.9625
G00 Z2.0000
M05
G00 Z2.0000
G00 Z15.00


M159 ; Stop cooling pump

